Color_Correction/G1618-04 #1 2023-02-06 20-32 D7000 sRGB F-S XYZLUT+MTX/G1618-04 #1 2023-02-06 20-32 D7000 sRGB F-S XYZLUT+MTX.bpc.ti3
CTI3   

DESCRIPTOR "Argyll Calibration Target chart information 3"
ORIGINATOR "Argyll dispread"
CREATED "Mon Feb 06 20:38:30 2023"
DEVICE_CLASS "DISPLAY"
SINGLE_DIM_STEPS "5"
COMP_GREY_STEPS "52"
MULTI_DIM_STEPS "5"
COLOR_REP "RGB_XYZ"
TARGET_INSTRUMENT "X-Rite i1 DisplayPro, ColorMunki Display"
DISPLAY_TYPE_REFRESH "NO"
DISPLAY_TYPE_BASE_ID "1"
INSTRUMENT_TYPE_SPECTRAL "NO"
LUMINANCE_XYZ_CDM2 "347.922701 367.074609 426.846022"
NORMALIZED_TO_Y_100 "YES"
VIDEO_LUT_CALIBRATION_POSSIBLE "YES"

BEGIN_ARGYLL_COLPROF_ARGS
-v -qh -aX -bn -C "No copyright. Created with DisplayCAL 3.8.9.3 and ArgyllCMS 2.1.2" -M "G1618-04"
END_ARGYLL_COLPROF_ARGS

OBSERVER "1931_2"
USE_BLACK_POINT_COMPENSATION "NO"
BLACK_POINT_CORRECTION "0.0"
HIRES_B2A "YES"
HIRES_B2A_SIZE "-1"
SMOOTH_B2A "YES"
PATCH_SEQUENCE "OPTIMIZE_DISPLAY_RESPONSE_DELAY"

NUMBER_OF_FIELDS 7
BEGIN_DATA_FORMAT
SAMPLE_ID RGB_R RGB_G RGB_B XYZ_X XYZ_Y XYZ_Z
END_DATA_FORMAT

NUMBER_OF_SETS 175
BEGIN_DATA
1 100.0000 100.0000 100.0000 94.78256 100.0000 116.2832
2 100.0000 100.0000 75.00000 85.75143 97.06607 68.32001
3 100.0000 100.0000 100.0000 94.76878 100.0111 116.2840
4 100.0000 100.0000 100.0000 94.79323 100.0003 116.3340
5 0.000000 0.000000 0.000000 0.096711 0.102034 0.118649
6 25.00000 0.000000 0.000000 1.939204 1.092451 0.319519
7 50.00000 0.000000 0.000000 7.535868 4.131310 0.477246
8 75.00000 0.000000 0.000000 18.55342 10.11254 0.782459
9 100.0000 0.000000 0.000000 36.63251 19.92322 1.293462
10 100.0000 0.000000 25.00000 37.71666 20.28399 6.725279
11 100.0000 25.00000 25.00000 39.82477 24.35480 7.479341
12 100.0000 50.00000 25.00000 46.27258 36.65917 9.380144
13 100.0000 75.00000 25.00000 58.06572 59.32863 12.81334
14 0.000000 0.000000 25.00000 1.033077 0.400911 5.041377
15 25.00000 0.000000 25.00000 2.916633 1.407207 5.503042
16 75.00000 0.000000 100.0000 38.15233 16.56714 102.6034
17 100.0000 0.000000 100.0000 55.89347 26.12494 104.4793
18 1.960800 1.960800 1.960800 0.196475 0.202561 0.268647
19 3.921600 3.921600 3.921600 0.389165 0.400745 0.520395
20 5.882400 5.882400 5.882400 0.552823 0.566116 0.782429
21 7.843100 7.843100 7.843100 0.758814 0.782060 1.000699
22 9.803900 9.803900 9.803900 1.052844 1.085818 1.382104
23 11.76500 11.76500 11.76500 1.295562 1.338247 1.702576
24 13.72600 13.72600 13.72600 1.660906 1.718874 2.177189
25 15.68600 15.68600 15.68600 2.119053 2.216299 2.684138
26 17.64700 17.64700 17.64700 2.562729 2.724872 3.071758
27 19.60800 19.60800 19.60800 3.129209 3.271264 3.954068
28 21.56900 21.56900 21.56900 3.650661 3.842135 4.644199
29 23.52900 23.52900 23.52900 4.352471 4.590486 5.375986
30 27.45100 27.45100 27.45100 5.788045 6.101257 7.229209
31 29.41200 29.41200 29.41200 6.634688 7.002229 8.209662
32 31.37300 31.37300 31.37300 7.739685 8.157056 9.571417
33 33.33300 33.33300 33.33300 8.645179 9.056852 10.65293
34 35.29400 35.29400 35.29400 9.819839 10.26241 12.14080
35 37.25500 37.25500 37.25500 11.08068 11.64238 13.73414
36 39.21600 39.21600 39.21600 12.20199 12.84627 14.96778
37 41.17600 41.17600 41.17600 13.45192 14.10274 16.60852
38 43.13700 43.13700 43.13700 14.81105 15.68602 18.20561
39 45.09800 45.09800 45.09800 16.41098 17.31634 20.20622
40 47.05900 47.05900 47.05900 17.85698 18.92485 21.69919
41 49.02000 49.02000 49.02000 19.58689 20.64234 24.31265
42 50.98000 50.98000 50.98000 21.25024 22.41782 26.46961
43 52.94100 52.94100 52.94100 23.08304 24.34977 28.52430
44 54.90200 54.90200 54.90200 25.00506 26.45071 30.99115
45 56.86300 56.86300 56.86300 27.23978 28.72960 33.81251
46 58.82400 58.82400 58.82400 29.26759 30.71867 36.11897
47 60.78400 60.78400 60.78400 31.41518 33.04091 38.79093
48 62.74500 62.74500 62.74500 33.59252 35.35557 41.71752
49 64.70600 64.70600 64.70600 35.97394 37.76166 44.48749
50 66.66700 66.66700 66.66700 38.18840 40.14305 47.15938
51 68.62700 68.62700 68.62700 41.22584 43.39615 50.85832
52 70.58800 70.58800 70.58800 43.89564 46.31187 53.84104
53 72.54900 72.54900 72.54900 46.35264 49.02725 57.28400
54 76.47100 76.47100 76.47100 51.70580 54.53270 63.69866
55 78.43100 78.43100 78.43100 54.70473 57.49873 68.15665
56 80.39200 80.39200 80.39200 57.99781 61.08268 71.85879
57 82.35300 82.35300 82.35300 61.19487 64.47189 75.45508
58 84.31400 84.31400 84.31400 64.96961 68.47687 80.23087
59 86.27500 86.27500 86.27500 68.17282 71.84926 84.08222
60 88.23500 88.23500 88.23500 71.61400 75.58901 87.58040
61 90.19600 90.19600 90.19600 75.22435 79.31754 92.76130
62 92.15700 92.15700 92.15700 79.05690 83.34735 97.94543
63 94.11800 94.11800 94.11800 82.13331 86.61514 100.7740
64 96.07800 96.07800 96.07800 86.89756 91.59714 107.1380
65 98.03900 98.03900 98.03900 90.47824 95.32723 111.7060
66 25.00000 25.00000 0.000000 3.847251 4.799159 0.862145
67 50.00000 25.00000 0.000000 9.746049 8.030174 1.031267
68 75.00000 25.00000 0.000000 20.74949 14.05202 1.344164
69 100.0000 25.00000 0.000000 38.51965 23.77289 1.864294
70 100.0000 50.00000 0.000000 45.07466 36.28936 3.698443
71 50.00000 50.00000 0.000000 16.13476 20.22106 2.816285
72 75.00000 50.00000 0.000000 26.99141 26.10417 3.113594
73 25.00000 50.00000 0.000000 10.10827 16.77730 2.616198
74 25.00000 75.00000 0.000000 21.89886 39.11123 5.883724
75 50.00000 75.00000 0.000000 27.86950 42.63086 6.103513
76 75.00000 75.00000 0.000000 38.77484 48.38631 6.373506
77 100.0000 75.00000 0.000000 56.60178 58.55303 6.972544
78 25.00000 100.0000 0.000000 40.27075 74.26335 11.06480
79 50.00000 100.0000 0.000000 46.27914 77.63495 11.25160
80 75.00000 100.0000 0.000000 57.16429 83.57902 11.54541
81 100.0000 100.0000 0.000000 74.87451 93.61647 12.15924
82 100.0000 100.0000 25.00000 76.00445 93.75236 17.96152
83 50.00000 0.000000 25.00000 8.594910 4.499454 5.512618
84 50.00000 25.00000 50.00000 14.11782 9.574980 23.34491
85 0.000000 25.00000 0.000000 2.007563 3.720941 0.798208
86 0.000000 25.00000 25.00000 2.985572 4.083132 5.902042
87 25.49000 25.49000 25.49000 5.120874 5.380090 6.327126
88 50.00000 25.00000 25.00000 10.77976 8.380858 6.335718
89 75.00000 25.00000 25.00000 21.97944 14.49992 6.813317
90 0.000000 50.00000 0.000000 8.283277 15.68982 2.553193
91 0.000000 50.00000 25.00000 9.257358 15.95004 7.872214
92 25.00000 50.00000 25.00000 11.31303 17.28750 8.005303
93 50.00000 50.00000 25.00000 17.19336 20.56951 8.059959
94 75.00000 50.00000 25.00000 28.20993 26.55171 8.528314
95 0.000000 75.00000 0.000000 20.00999 38.04780 5.828638
96 0.000000 75.00000 25.00000 20.98111 38.29942 11.24644
97 25.00000 75.00000 25.00000 23.07071 39.66647 11.38181
98 50.00000 75.00000 25.00000 28.91865 42.84734 11.51443
99 75.00000 75.00000 25.00000 39.95316 49.02487 11.89595
100 0.000000 100.0000 0.000000 38.33458 73.06678 10.99664
101 0.000000 100.0000 25.00000 39.41077 73.49339 16.60986
102 25.00000 100.0000 25.00000 41.40603 74.62571 16.74032
103 50.00000 100.0000 25.00000 47.53971 78.05527 17.02599
104 75.00000 100.0000 25.00000 58.48717 84.07838 17.25155
105 0.000000 0.000000 50.00000 4.222282 1.439846 22.08734
106 25.00000 0.000000 50.00000 6.058282 2.432714 22.17551
107 50.00000 0.000000 50.00000 11.88934 5.598232 22.25773
108 75.00000 0.000000 50.00000 22.80386 11.52302 22.73683
109 100.0000 0.000000 50.00000 40.66973 21.20931 23.33432
110 100.0000 0.000000 75.00000 46.47556 23.10381 53.91594
111 100.0000 25.00000 75.00000 48.72156 27.17945 55.97786
112 75.00000 0.000000 25.00000 19.60384 10.46651 6.020486
113 75.00000 25.00000 50.00000 25.13185 15.54009 24.02696
114 100.0000 25.00000 50.00000 42.88748 25.31509 24.63073
115 25.00000 25.00000 50.00000 8.151593 6.224722 23.31258
116 25.00000 50.00000 50.00000 14.49478 18.34259 24.95364
117 75.00000 50.00000 50.00000 31.64668 27.82901 25.82195
118 100.0000 50.00000 50.00000 49.52009 37.86003 27.14683
119 100.0000 50.00000 75.00000 55.29343 39.64842 58.74908
120 25.00000 75.00000 50.00000 26.24886 40.68140 28.40589
121 50.00000 75.00000 50.00000 32.24963 43.97266 28.74217
122 75.00000 75.00000 50.00000 43.36053 50.11252 29.58054
123 100.0000 75.00000 50.00000 61.18249 60.22503 30.65389
124 100.0000 75.00000 75.00000 66.96216 61.79281 62.14633
125 25.00000 100.0000 50.00000 44.76979 75.73804 34.52937
126 50.00000 100.0000 50.00000 50.77282 79.03788 34.76355
127 75.00000 100.0000 50.00000 61.76417 84.96773 35.13817
128 100.0000 100.0000 50.00000 79.28079 94.59916 36.40949
129 25.00000 0.000000 75.00000 11.92352 4.355221 52.96159
130 50.00000 0.000000 75.00000 17.77680 7.526643 53.24725
131 75.00000 0.000000 75.00000 28.92477 13.54750 54.54099
132 75.00000 25.00000 75.00000 31.05423 17.45825 55.11741
133 75.00000 50.00000 100.0000 46.71976 32.69936 105.6911
134 25.00000 25.00000 75.00000 13.99700 8.131972 54.14921
135 25.00000 50.00000 100.0000 29.55827 23.31578 104.7241
136 0.000000 25.00000 50.00000 6.196824 5.079142 23.12929
137 0.000000 25.00000 75.00000 12.15675 7.124646 54.47861
138 0.000000 50.00000 75.00000 18.21916 18.93037 55.29932
139 25.00000 50.00000 75.00000 20.42157 20.09820 56.90826
140 50.00000 50.00000 75.00000 26.43132 23.42979 57.19444
141 75.00000 50.00000 75.00000 37.53301 29.78361 57.11933
142 74.51000 74.51000 74.51000 48.70457 51.37235 60.05284
143 0.000000 75.00000 75.00000 30.14391 41.28052 59.92341
144 25.00000 75.00000 75.00000 32.40506 42.82465 60.57102
145 50.00000 75.00000 75.00000 38.40468 46.01876 61.31338
146 0.000000 75.00000 50.00000 24.32158 39.51967 28.57935
147 0.000000 100.0000 50.00000 42.66389 74.44208 34.24338
148 0.000000 100.0000 75.00000 48.43178 76.09810 65.38099
149 25.00000 100.0000 75.00000 50.66429 77.56123 66.07794
150 50.00000 100.0000 75.00000 56.74682 80.81198 66.71735
151 75.00000 100.0000 75.00000 67.80804 86.98732 67.04682
152 75.00000 100.0000 100.0000 76.84311 89.51236 116.0707
153 25.00000 0.000000 100.0000 21.16021 7.346028 101.8925
154 50.00000 0.000000 100.0000 27.03933 10.54790 102.1271
155 0.000000 0.000000 75.00000 10.11796 3.353790 53.39228
156 0.000000 0.000000 100.0000 19.01919 6.237400 100.6929
157 0.000000 25.00000 100.0000 21.42652 10.04050 103.9175
158 25.00000 25.00000 100.0000 23.41673 11.29281 103.7452
159 50.00000 25.00000 100.0000 29.35995 14.49066 103.9266
160 75.00000 25.00000 100.0000 40.56167 20.62431 104.6597
161 100.0000 25.00000 100.0000 58.09828 30.22180 105.8270
162 100.0000 50.00000 100.0000 64.27312 42.66386 106.4607
163 50.00000 25.00000 75.00000 20.11935 11.51864 54.94538
164 50.00000 50.00000 100.0000 35.94837 26.87048 105.7735
165 0.000000 50.00000 50.00000 12.37099 16.95994 24.40953
166 0.000000 50.00000 100.0000 27.80031 22.13079 105.8637
167 0.000000 75.00000 100.0000 39.41903 44.38528 108.8568
168 25.00000 75.00000 100.0000 41.83968 45.88582 110.4702
169 50.00000 75.00000 100.0000 47.72003 49.17882 109.9405
170 75.00000 75.00000 100.0000 58.61137 55.13710 109.8586
171 100.0000 75.00000 100.0000 76.27894 64.98145 110.6209
172 0.000000 100.0000 100.0000 58.01769 79.43885 115.6429
173 25.00000 100.0000 100.0000 59.91805 80.28785 115.9715
174 50.00000 100.0000 100.0000 66.03295 83.84247 115.5968
175 100.0000 100.0000 100.0000 94.25801 99.40396 116.4328
END_DATA
CAL    

DESCRIPTOR "Argyll Device Calibration State"
ORIGINATOR "Argyll dispread"
CREATED "Mon Feb 06 20:38:30 2023"
DEVICE_CLASS "DISPLAY"
COLOR_REP "RGB"

BEGIN_ARGYLL_DISPCAL_ARGS
-v2 -ql -t7000 -gs -f1.0 -k0 -A4.0 -d1 -c1 -yn -P0.998171846435,0.5,0.943642611684
END_ARGYLL_DISPCAL_ARGS


NUMBER_OF_FIELDS 4
BEGIN_DATA_FORMAT
RGB_I RGB_R RGB_G RGB_B
END_DATA_FORMAT

NUMBER_OF_SETS 256
BEGIN_DATA
0.00000000 0.00000000 0.00000000 0.00000000
0.00392157 0.00914427 0.00891571 0.00686281
0.00784314 0.01726430 0.01685510 0.01307130
0.01176470 0.02452310 0.02397010 0.01871490
0.01568630 0.03105070 0.03038300 0.02386720
0.01960780 0.03695590 0.03619540 0.02858980
0.02352940 0.04235230 0.04151540 0.03294120
0.02745100 0.04733780 0.04643520 0.03698350
0.03137250 0.05199420 0.05102970 0.04077150
0.03529410 0.05639940 0.05536850 0.04434400
0.03921570 0.06061850 0.05950430 0.04775010
0.04313730 0.06469190 0.06347880 0.05102790
0.04705880 0.06864720 0.06732880 0.05421210
0.05098040 0.07250910 0.07108300 0.05732860
0.05490200 0.07630360 0.07476280 0.06039630
0.05882350 0.08004890 0.07838840 0.06344070
0.06274510 0.08374950 0.08197180 0.06647440
0.06666670 0.08741430 0.08552340 0.06950000
0.07058820 0.09104900 0.08904630 0.07253280
0.07450980 0.09466340 0.09254750 0.07557500
0.07843140 0.09824990 0.09602620 0.07864340
0.08235290 0.10181700 0.09949390 0.08174050
0.08627450 0.10536300 0.10294500 0.08486140
0.09019610 0.10888300 0.10637700 0.08799830
0.09411760 0.11238300 0.10980300 0.09114470
0.09803920 0.11585600 0.11321900 0.09429730
0.10196100 0.11930200 0.11662400 0.09745340
0.10588200 0.12271600 0.12001700 0.10061200
0.10980400 0.12612300 0.12341400 0.10376400
0.11372500 0.12952400 0.12680900 0.10692700
0.11764700 0.13291800 0.13020200 0.11009600
0.12156900 0.13629900 0.13358500 0.11326600
0.12549000 0.13966000 0.13695600 0.11642500
0.12941200 0.14302600 0.14033400 0.11956100
0.13333300 0.14640200 0.14370900 0.12269200
0.13725500 0.14977300 0.14707400 0.12581100
0.14117600 0.15314200 0.15043500 0.12891300
0.14509800 0.15651300 0.15378100 0.13200700
0.14902000 0.15987100 0.15710400 0.13507900
0.15294100 0.16322800 0.16042000 0.13813100
0.15686300 0.16659400 0.16374000 0.14116700
0.16078400 0.16997800 0.16705900 0.14419000
0.16470600 0.17337500 0.17037000 0.14718600
0.16862700 0.17678700 0.17367500 0.15015900
0.17254900 0.18022400 0.17698300 0.15312200
0.17647100 0.18369200 0.18029100 0.15607200
0.18039200 0.18716900 0.18359200 0.15899900
0.18431400 0.19065500 0.18689600 0.16191600
0.18823500 0.19415100 0.19020700 0.16482000
0.19215700 0.19766800 0.19353900 0.16772100
0.19607800 0.20121500 0.19689900 0.17063300
0.20000000 0.20479000 0.20027300 0.17355500
0.20392200 0.20838100 0.20365300 0.17648700
0.20784300 0.21198500 0.20704100 0.17942800
0.21176500 0.21559100 0.21043800 0.18238200
0.21568600 0.21921700 0.21385900 0.18536900
0.21960800 0.22286600 0.21730600 0.18838900
0.22352900 0.22652300 0.22075700 0.19142300
0.22745100 0.23016500 0.22420100 0.19445800
0.23137300 0.23381100 0.22765800 0.19750300
0.23529400 0.23747100 0.23113000 0.20055800
0.23921600 0.24113700 0.23461200 0.20361300
0.24313700 0.24481200 0.23811500 0.20666500
0.24705900 0.24851000 0.24164900 0.20972300
0.25098000 0.25224200 0.24522700 0.21280000
0.25490200 0.25600000 0.24883400 0.21588500
0.25882400 0.25977100 0.25246300 0.21897500
0.26274500 0.26355600 0.25611700 0.22207100
0.26666700 0.26737000 0.25980000 0.22518400
0.27058800 0.27120500 0.26349900 0.22830700
0.27451000 0.27506300 0.26721800 0.23143900
0.27843100 0.27894900 0.27096500 0.23459700
0.28235300 0.28287600 0.27475000 0.23779200
0.28627500 0.28685800 0.27857700 0.24103600
0.29019600 0.29084700 0.28240500 0.24430600
0.29411800 0.29479900 0.28619800 0.24756700
0.29803900 0.29872800 0.28997000 0.25083800
0.30196100 0.30264600 0.29373000 0.25412800
0.30588200 0.30656000 0.29748600 0.25742700
0.30980400 0.31046600 0.30123800 0.26073200
0.31372500 0.31434400 0.30496500 0.26402500
0.31764700 0.31820200 0.30867600 0.26731500
0.32156900 0.32202700 0.31236500 0.27059700
0.32549000 0.32582100 0.31603500 0.27385800
0.32941200 0.32958400 0.31968900 0.27709300
0.33333300 0.33332000 0.32333400 0.28030300
0.33725500 0.33705300 0.32699500 0.28350300
0.34117600 0.34077400 0.33065700 0.28668300
0.34509800 0.34446600 0.33430700 0.28983100
0.34902000 0.34813000 0.33794300 0.29295000
0.35294100 0.35176500 0.34156600 0.29604300
0.35686300 0.35538100 0.34518000 0.29912300
0.36078400 0.35897200 0.34878300 0.30218000
0.36470600 0.36256000 0.35238900 0.30523900
0.36862700 0.36614700 0.35599600 0.30830700
0.37254900 0.36971000 0.35958900 0.31137300
0.37647100 0.37326500 0.36317600 0.31444400
0.38039200 0.37682600 0.36677000 0.31752200
0.38431400 0.38040700 0.37037500 0.32061500
0.38823500 0.38400700 0.37398600 0.32372200
0.39215700 0.38763100 0.37762100 0.32684500
0.39607800 0.39129100 0.38129200 0.32999100
0.40000000 0.39500300 0.38501700 0.33317000
0.40392200 0.39877400 0.38880000 0.33638000
0.40784300 0.40258900 0.39259500 0.33960700
0.41176500 0.40637800 0.39635200 0.34279800
0.41568600 0.41013000 0.40007300 0.34594700
0.41960800 0.41386000 0.40377400 0.34906300
0.42352900 0.41758400 0.40746700 0.35216300
0.42745100 0.42131300 0.41115800 0.35526500
0.43137300 0.42504000 0.41484000 0.35836800
0.43529400 0.42876400 0.41853400 0.36147300
0.43921600 0.43250800 0.42223600 0.36459500
0.44313700 0.43626300 0.42594100 0.36772800
0.44705900 0.44003300 0.42966200 0.37087900
0.45098000 0.44383100 0.43339900 0.37406600
0.45490200 0.44765300 0.43712200 0.37728300
0.45882400 0.45146700 0.44083300 0.38050700
0.46274500 0.45528700 0.44454900 0.38375600
0.46666700 0.45912200 0.44828100 0.38705100
0.47058800 0.46297800 0.45201800 0.39040400
0.47451000 0.46683600 0.45575000 0.39379700
0.47843100 0.47069800 0.45949000 0.39723100
0.48235300 0.47456500 0.46323200 0.40069800
0.48627500 0.47844100 0.46698000 0.40419700
0.49019600 0.48232400 0.47073700 0.40772300
0.49411800 0.48620600 0.47450400 0.41127300
0.49803900 0.49008300 0.47828200 0.41484700
0.50196100 0.49395700 0.48207100 0.41844400
0.50588200 0.49782900 0.48588500 0.42207200
0.50980400 0.50172400 0.48973700 0.42571600
0.51372500 0.50565000 0.49359300 0.42934200
0.51764700 0.50959500 0.49745200 0.43294900
0.52156900 0.51356000 0.50131500 0.43653800
0.52549000 0.51754300 0.50518000 0.44010900
0.52941200 0.52154900 0.50904600 0.44366800
0.53333300 0.52558700 0.51290900 0.44721600
0.53725500 0.52965800 0.51676700 0.45076500
0.54117600 0.53376000 0.52062300 0.45429500
0.54509800 0.53788300 0.52446200 0.45780300
0.54902000 0.54202700 0.52830500 0.46129500
0.55294100 0.54620600 0.53215800 0.46475800
0.55686300 0.55039100 0.53600200 0.46819800
0.56078400 0.55457500 0.53984800 0.47162000
0.56470600 0.55876800 0.54370900 0.47502700
0.56862700 0.56296700 0.54758600 0.47843100
0.57254900 0.56717100 0.55150000 0.48184300
0.57647100 0.57139400 0.55546200 0.48524200
0.58039200 0.57560800 0.55942400 0.48859200
0.58431400 0.57974300 0.56335000 0.49190600
0.58823500 0.58381600 0.56725800 0.49520700
0.59215700 0.58785100 0.57116400 0.49849900
0.59607800 0.59185500 0.57506700 0.50176400
0.60000000 0.59582500 0.57895700 0.50499800
0.60392200 0.59976400 0.58283400 0.50820400
0.60784300 0.60367700 0.58670400 0.51139800
0.61176500 0.60756800 0.59056600 0.51458100
0.61568600 0.61143900 0.59441900 0.51775300
0.61960800 0.61530200 0.59827200 0.52092000
0.62352900 0.61915500 0.60210400 0.52406600
0.62745100 0.62298300 0.60590800 0.52719300
0.63137300 0.62679100 0.60969200 0.53031400
0.63529400 0.63060200 0.61346800 0.53342700
0.63921600 0.63441400 0.61723400 0.53652800
0.64313700 0.63821800 0.62099300 0.53963100
0.64705900 0.64202000 0.62475700 0.54274400
0.65098000 0.64582600 0.62854200 0.54588600
0.65490200 0.64966000 0.63237000 0.54908700
0.65882400 0.65354200 0.63626500 0.55237100
0.66274500 0.65749100 0.64024700 0.55575500
0.66666700 0.66151900 0.64431900 0.55924700
0.67058800 0.66562900 0.64848200 0.56284700
0.67451000 0.66979000 0.65261600 0.56644200
0.67843100 0.67387800 0.65665900 0.56999000
0.68235300 0.67788100 0.66061600 0.57348900
0.68627500 0.68180000 0.66449300 0.57694200
0.69019600 0.68565700 0.66830600 0.58036100
0.69411800 0.68948100 0.67207900 0.58377000
0.69803900 0.69328700 0.67582800 0.58718300
0.70196100 0.69708900 0.67956200 0.59060000
0.70588200 0.70088900 0.68328500 0.59401600
0.70980400 0.70469700 0.68700400 0.59742300
0.71372500 0.70851500 0.69071100 0.60080800
0.71764700 0.71233000 0.69441300 0.60417600
0.72156900 0.71615700 0.69812300 0.60753400
0.72549000 0.72000500 0.70183500 0.61087900
0.72941200 0.72386900 0.70556100 0.61422200
0.73333300 0.72776200 0.70929900 0.61755100
0.73725500 0.73167000 0.71303600 0.62087000
0.74117600 0.73558000 0.71679300 0.62418600
0.74509800 0.73950500 0.72056700 0.62748800
0.74902000 0.74342900 0.72435600 0.63077300
0.75294100 0.74735000 0.72816400 0.63404900
0.75686300 0.75127500 0.73200000 0.63732300
0.76078400 0.75521000 0.73585800 0.64058700
0.76470600 0.75914600 0.73973700 0.64384300
0.76862700 0.76308300 0.74363000 0.64709300
0.77254900 0.76701900 0.74754800 0.65035500
0.77647100 0.77096600 0.75146900 0.65360900
0.78039200 0.77490600 0.75538500 0.65685200
0.78431400 0.77884400 0.75930400 0.66008900
0.78823500 0.78278500 0.76322800 0.66332200
0.79215700 0.78673100 0.76716800 0.66658000
0.79607800 0.79070400 0.77114600 0.66988400
0.80000000 0.79473600 0.77517600 0.67324800
0.80392200 0.79884300 0.77924300 0.67665400
0.80784300 0.80300000 0.78325900 0.68004400
0.81176500 0.80712400 0.78721900 0.68341600
0.81568600 0.81121400 0.79113900 0.68678800
0.81960800 0.81528800 0.79503900 0.69017700
0.82352900 0.81935900 0.79892800 0.69360300
0.82745100 0.82343700 0.80281100 0.69705900
0.83137300 0.82751600 0.80668300 0.70052600
0.83529400 0.83158500 0.81054600 0.70400300
0.83921600 0.83564500 0.81441200 0.70748300
0.84313700 0.83971700 0.81828000 0.71096400
0.84705900 0.84380400 0.82214300 0.71444200
0.85098000 0.84789500 0.82601400 0.71792100
0.85490200 0.85200000 0.82991700 0.72142300
0.85882400 0.85614100 0.83385600 0.72494400
0.86274500 0.86030400 0.83776800 0.72843200
0.86666700 0.86440900 0.84163700 0.73188700
0.87058800 0.86846500 0.84548200 0.73532200
0.87451000 0.87249500 0.84930800 0.73874200
0.87843100 0.87650400 0.85312300 0.74215600
0.88235300 0.88051500 0.85693500 0.74556500
0.88627500 0.88453000 0.86075400 0.74898700
0.89019600 0.88856400 0.86459000 0.75241700
0.89411800 0.89260400 0.86840700 0.75582900
0.89803900 0.89661900 0.87220900 0.75922700
0.90196100 0.90062800 0.87600400 0.76260700
0.90588200 0.90464200 0.87980300 0.76596900
0.90980400 0.90867100 0.88361400 0.76931000
0.91372500 0.91270900 0.88742100 0.77261500
0.91764700 0.91672900 0.89122500 0.77589400
0.92156900 0.92073900 0.89504100 0.77916700
0.92549000 0.92475600 0.89886500 0.78241800
0.92941200 0.92875700 0.90267400 0.78565900
0.93333300 0.93275700 0.90648900 0.78891000
0.93725500 0.93676600 0.91029900 0.79215200
0.94117600 0.94077100 0.91410400 0.79539500
0.94509800 0.94477100 0.91790200 0.79862800
0.94902000 0.94876600 0.92169800 0.80185400
0.95294100 0.95275300 0.92548900 0.80507600
0.95686300 0.95673200 0.92927800 0.80829100
0.96078400 0.96070800 0.93306300 0.81150100
0.96470600 0.96468200 0.93684400 0.81470600
0.96862700 0.96865100 0.94062300 0.81790000
0.97254900 0.97261800 0.94440200 0.82108700
0.97647100 0.97658200 0.94818100 0.82426600
0.98039200 0.98054400 0.95196000 0.82743700
0.98431400 0.98450400 0.95573900 0.83060000
0.98823500 0.98846200 0.95951700 0.83375500
0.99215700 0.99241700 0.96329500 0.83690200
0.99607800 0.99637000 0.96707400 0.84004100
1.00000000 1.00000000 0.97085200 0.84317300
END_DATA
