Color_Correction/G1618-04 #1 2023-02-06 20-32 D7000 sRGB F-S XYZLUT+MTX/G1618-04 #1 2023-02-06 20-32 D7000 sRGB F-S XYZLUT+MTX.ti1
CTI1   

DESCRIPTOR "Argyll Calibration Target chart information 1"
ORIGINATOR "Argyll targen"
CREATED "Fri Jan 20 00:59:07 2023"
SINGLE_DIM_STEPS "5"
COMP_GREY_STEPS "52"
MULTI_DIM_STEPS "5"
COLOR_REP "RGB"
TARGET_INSTRUMENT "X-Rite i1 DisplayPro, ColorMunki Display"
DISPLAY_TYPE_REFRESH "NO"
DISPLAY_TYPE_BASE_ID "1"
INSTRUMENT_TYPE_SPECTRAL "NO"
NORMALIZED_TO_Y_100 "YES"
VIDEO_LUT_CALIBRATION_POSSIBLE "YES"
OBSERVER "1931_2"
USE_BLACK_POINT_COMPENSATION "NO"
BLACK_POINT_CORRECTION "0.0"
HIRES_B2A "YES"
HIRES_B2A_SIZE "-1"
SMOOTH_B2A "YES"
PATCH_SEQUENCE "OPTIMIZE_DISPLAY_RESPONSE_DELAY"

NUMBER_OF_FIELDS 7
BEGIN_DATA_FORMAT
SAMPLE_ID RGB_R RGB_G RGB_B XYZ_X XYZ_Y XYZ_Z
END_DATA_FORMAT

NUMBER_OF_SETS 175
BEGIN_DATA
1 100.0000 100.0000 100.0000 95.03233 100.0000 127.6537
2 100.0000 100.0000 75.00000 84.51319 96.52619 74.07793
3 100.0000 100.0000 100.0000 95.05433 100.0007 127.7585
4 100.0000 100.0000 100.0000 95.00567 99.98163 127.7593
5 0.000000 0.000000 0.000000 0.240686 0.215566 0.565327
6 25.00000 0.000000 0.000000 1.886499 1.108164 0.610004
7 50.00000 0.000000 0.000000 7.158473 3.970216 0.761704
8 75.00000 0.000000 0.000000 17.18570 9.413650 1.052434
9 100.0000 0.000000 0.000000 33.81357 18.44788 1.531976
10 100.0000 0.000000 25.00000 34.71014 18.70144 7.105099
11 100.0000 25.00000 25.00000 37.08791 22.72882 8.186507
12 100.0000 50.00000 25.00000 43.33257 34.88781 9.803171
13 100.0000 75.00000 25.00000 55.59289 57.81168 13.62635
14 0.000000 0.000000 25.00000 1.321242 0.568342 6.308045
15 25.00000 0.000000 25.00000 3.087276 1.519902 6.485957
16 75.00000 0.000000 100.0000 38.41647 16.49205 111.8440
17 100.0000 0.000000 100.0000 55.47671 25.60448 115.4246
18 1.960800 1.960800 1.960800 0.335221 0.314312 0.694080
19 3.921600 3.921600 3.921600 0.485473 0.493777 0.843276
20 5.882400 5.882400 5.882400 0.689958 0.705299 1.079980
21 7.843100 7.843100 7.843100 0.882362 0.919314 1.359926
22 9.803900 9.803900 9.803900 1.149936 1.170020 1.798179
23 11.76500 11.76500 11.76500 1.398553 1.454343 2.099162
24 13.72600 13.72600 13.72600 1.809835 1.902719 2.750895
25 15.68600 15.68600 15.68600 2.206005 2.312250 3.248240
26 17.64700 17.64700 17.64700 2.735779 2.826638 4.128353
27 19.60800 19.60800 19.60800 3.167390 3.266824 4.694807
28 21.56900 21.56900 21.56900 3.743141 3.924681 5.440983
29 23.52900 23.52900 23.52900 4.447770 4.606457 6.457266
30 27.45100 27.45100 27.45100 5.985902 6.251156 8.340951
31 29.41200 29.41200 29.41200 6.837883 7.193155 9.605961
32 31.37300 31.37300 31.37300 7.844298 8.161434 11.09655
33 33.33300 33.33300 33.33300 8.688222 9.177510 12.14661
34 35.29400 35.29400 35.29400 9.716842 10.25153 13.04228
35 37.25500 37.25500 37.25500 10.89774 11.49053 14.92003
36 39.21600 39.21600 39.21600 12.10711 12.64165 16.75526
37 41.17600 41.17600 41.17600 13.45785 13.97983 18.64838
38 43.13700 43.13700 43.13700 14.69952 15.36209 20.29575
39 45.09800 45.09800 45.09800 16.24170 17.10147 22.37622
40 47.05900 47.05900 47.05900 17.72387 18.62639 24.27985
41 49.02000 49.02000 49.02000 19.50998 20.38472 26.92014
42 50.98000 50.98000 50.98000 21.42230 22.41218 29.35461
43 52.94100 52.94100 52.94100 23.29687 24.42713 32.21161
44 54.90200 54.90200 54.90200 25.07428 26.39157 34.33174
45 56.86300 56.86300 56.86300 26.86505 28.16757 36.76157
46 58.82400 58.82400 58.82400 28.97876 30.51399 39.62229
47 60.78400 60.78400 60.78400 31.32819 32.87909 43.00373
48 62.74500 62.74500 62.74500 33.43153 35.07762 45.96532
49 64.70600 64.70600 64.70600 35.96447 37.92003 48.93520
50 66.66700 66.66700 66.66700 37.94674 40.12099 51.68963
51 68.62700 68.62700 68.62700 41.01759 43.25671 55.81286
52 70.58800 70.58800 70.58800 43.41149 45.87707 59.20140
53 72.54900 72.54900 72.54900 46.12563 48.60130 63.32182
54 76.47100 76.47100 76.47100 52.13692 54.83981 71.78203
55 78.43100 78.43100 78.43100 54.81460 58.03449 74.44282
56 80.39200 80.39200 80.39200 57.91733 61.06490 78.77249
57 82.35300 82.35300 82.35300 61.54384 65.12605 83.43674
58 84.31400 84.31400 84.31400 64.90065 68.27069 88.92245
59 86.27500 86.27500 86.27500 68.37151 71.97303 93.47409
60 88.23500 88.23500 88.23500 71.28712 75.39905 96.55712
61 90.19600 90.19600 90.19600 75.11231 79.31262 101.9486
62 92.15700 92.15700 92.15700 78.86851 83.56046 106.6151
63 94.11800 94.11800 94.11800 83.12108 87.90525 112.1134
64 96.07800 96.07800 96.07800 86.80044 91.74925 116.7688
65 98.03900 98.03900 98.03900 91.03275 96.05213 122.2663
66 25.00000 25.00000 0.000000 3.857889 4.845960 1.161083
67 50.00000 25.00000 0.000000 9.280257 7.815093 1.326079
68 75.00000 25.00000 0.000000 19.24835 13.19495 1.606630
69 100.0000 25.00000 0.000000 35.50546 22.06030 2.083093
70 100.0000 50.00000 0.000000 41.96807 34.25496 3.903070
71 50.00000 50.00000 0.000000 15.67154 19.82928 3.113462
72 75.00000 50.00000 0.000000 25.47067 25.23131 3.414979
73 25.00000 50.00000 0.000000 10.09705 16.64602 2.929030
74 25.00000 75.00000 0.000000 21.97917 39.21655 6.318608
75 50.00000 75.00000 0.000000 27.51112 42.31592 6.491826
76 75.00000 75.00000 0.000000 37.52132 47.90097 6.813680
77 100.0000 75.00000 0.000000 53.70669 56.46705 7.237950
78 25.00000 100.0000 0.000000 40.37004 74.30206 11.58442
79 50.00000 100.0000 0.000000 45.92648 77.44348 11.77858
80 75.00000 100.0000 0.000000 56.31911 83.24576 12.10211
81 100.0000 100.0000 0.000000 72.45478 92.09410 12.59136
82 100.0000 100.0000 25.00000 73.96150 92.74892 18.93636
83 50.00000 0.000000 25.00000 8.423618 4.413339 6.750326
84 50.00000 25.00000 50.00000 13.94780 9.379590 26.40830
85 0.000000 25.00000 0.000000 2.143938 3.850911 1.102352
86 0.000000 25.00000 25.00000 3.295766 4.300798 6.979390
87 25.49000 25.49000 25.49000 5.192921 5.546803 7.079086
88 50.00000 25.00000 25.00000 10.51729 8.312805 7.197652
89 75.00000 25.00000 25.00000 20.57597 13.78781 7.774723
90 0.000000 50.00000 0.000000 8.384346 15.74253 2.885552
91 0.000000 50.00000 25.00000 9.427315 16.02381 8.622041
92 25.00000 50.00000 25.00000 11.26608 17.09634 8.883152
93 50.00000 50.00000 25.00000 16.81160 20.28490 9.299188
94 75.00000 50.00000 25.00000 26.94196 25.75499 9.508777
95 0.000000 75.00000 0.000000 19.89647 37.66482 6.181171
96 0.000000 75.00000 25.00000 21.25520 38.40999 12.36892
97 25.00000 75.00000 25.00000 22.97751 39.48510 12.44485
98 50.00000 75.00000 25.00000 28.69320 42.76665 12.50814
99 75.00000 75.00000 25.00000 38.77573 48.56034 12.69589
100 0.000000 100.0000 0.000000 38.57901 73.16600 11.50950
101 0.000000 100.0000 25.00000 39.50975 73.09602 17.70997
102 25.00000 100.0000 25.00000 41.67562 74.85672 17.76493
103 50.00000 100.0000 25.00000 47.30795 78.16562 17.93769
104 75.00000 100.0000 25.00000 57.37880 83.64006 18.23336
105 0.000000 0.000000 50.00000 4.804131 1.711652 24.85001
106 25.00000 0.000000 50.00000 6.424158 2.606807 24.51417
107 50.00000 0.000000 50.00000 11.88198 5.532574 25.50005
108 75.00000 0.000000 50.00000 21.86499 10.99911 24.64018
109 100.0000 0.000000 50.00000 38.45420 19.94516 26.43690
110 100.0000 0.000000 75.00000 44.85589 22.05007 60.58384
111 100.0000 25.00000 75.00000 47.33324 26.10750 62.96289
112 75.00000 0.000000 25.00000 18.41948 9.849629 6.886864
113 75.00000 25.00000 50.00000 24.25113 15.01963 26.38807
114 100.0000 25.00000 50.00000 40.38218 23.84408 26.71835
115 25.00000 25.00000 50.00000 8.710218 6.466923 26.36524
116 25.00000 50.00000 50.00000 14.87934 18.49808 27.52533
117 75.00000 50.00000 50.00000 30.83758 27.25942 28.70236
118 100.0000 50.00000 50.00000 47.12902 36.06514 29.65986
119 100.0000 50.00000 75.00000 53.87634 38.58740 64.12649
120 25.00000 75.00000 50.00000 26.85278 41.13647 31.39121
121 50.00000 75.00000 50.00000 32.57992 44.30075 32.16591
122 75.00000 75.00000 50.00000 43.00512 50.11538 32.04231
123 100.0000 75.00000 50.00000 59.09653 58.98096 33.42965
124 100.0000 75.00000 75.00000 66.31545 61.52817 68.19917
125 25.00000 100.0000 50.00000 45.45368 76.35237 37.37042
126 50.00000 100.0000 50.00000 51.17282 79.56900 37.40894
127 75.00000 100.0000 50.00000 61.22019 85.09640 38.23634
128 100.0000 100.0000 50.00000 77.52286 93.88385 38.13839
129 25.00000 0.000000 75.00000 13.03387 4.785942 59.60632
130 50.00000 0.000000 75.00000 18.39760 7.733443 59.01402
131 75.00000 0.000000 75.00000 28.42473 13.13927 60.04890
132 75.00000 25.00000 75.00000 30.90222 17.22108 61.90150
133 75.00000 50.00000 100.0000 47.80138 33.01809 118.3278
134 25.00000 25.00000 75.00000 15.16108 8.678373 60.30332
135 25.00000 50.00000 100.0000 31.72105 24.14665 116.6236
136 0.000000 25.00000 50.00000 6.743375 5.398825 25.44046
137 0.000000 25.00000 75.00000 13.41390 7.630748 60.63797
138 0.000000 50.00000 75.00000 19.46567 19.32481 62.00136
139 25.00000 50.00000 75.00000 21.62310 20.71996 63.24753
140 50.00000 50.00000 75.00000 27.22173 23.79767 63.60147
141 75.00000 50.00000 75.00000 37.23808 29.26421 63.26783
142 74.51000 74.51000 74.51000 48.58845 51.28262 66.71029
143 0.000000 75.00000 75.00000 31.44259 41.88075 66.07531
144 25.00000 75.00000 75.00000 33.45126 43.14743 66.89994
145 50.00000 75.00000 75.00000 39.02505 46.54839 65.99992
146 0.000000 75.00000 50.00000 24.87188 39.60546 31.50605
147 0.000000 100.0000 50.00000 43.34719 74.79369 36.74999
148 0.000000 100.0000 75.00000 49.69561 76.46663 71.83332
149 25.00000 100.0000 75.00000 52.19167 78.83926 72.25796
150 50.00000 100.0000 75.00000 57.73767 81.72649 72.60719
151 75.00000 100.0000 75.00000 67.88774 87.15591 73.00643
152 75.00000 100.0000 100.0000 78.96229 91.18474 129.3254
153 25.00000 0.000000 100.0000 23.10366 8.091054 113.2955
154 50.00000 0.000000 100.0000 28.88976 11.17083 114.5929
155 0.000000 0.000000 75.00000 10.94686 3.732768 57.52573
156 0.000000 0.000000 100.0000 21.51594 7.199867 113.7360
157 0.000000 25.00000 100.0000 23.48138 10.94585 114.4330
158 25.00000 25.00000 100.0000 25.64917 12.11175 116.5149
159 50.00000 25.00000 100.0000 31.02853 15.02885 115.6048
160 75.00000 25.00000 100.0000 41.17338 20.58194 115.6919
161 100.0000 25.00000 100.0000 57.35136 29.46668 115.9173
162 100.0000 50.00000 100.0000 64.27987 41.82344 119.8069
163 50.00000 25.00000 75.00000 20.83096 11.74662 61.60383
164 50.00000 50.00000 100.0000 37.81985 27.50516 118.5534
165 0.000000 50.00000 50.00000 13.16582 17.28809 28.38083
166 0.000000 50.00000 100.0000 30.19268 22.98991 118.6352
167 0.000000 75.00000 100.0000 41.87620 45.44795 121.1330
168 25.00000 75.00000 100.0000 43.88899 46.87366 121.2246
169 50.00000 75.00000 100.0000 49.72437 50.08259 122.4194
170 75.00000 75.00000 100.0000 59.66816 55.58302 122.6163
171 100.0000 75.00000 100.0000 75.94748 64.28206 123.5706
172 0.000000 100.0000 100.0000 60.35032 80.53605 126.7955
173 25.00000 100.0000 100.0000 62.38740 81.77988 127.6185
174 50.00000 100.0000 100.0000 68.35485 85.37576 127.9784
175 100.0000 100.0000 100.0000 95.03217 100.0124 128.3922
END_DATA
