Color_Correction/G1618-04 #1 2023-02-06 20-42 D7500 sRGB F-S XYZLUT+MTX/G1618-04 #1 2023-02-06 20-42 D7500 sRGB F-S XYZLUT+MTX.cal
CAL    

DESCRIPTOR "Argyll Device Calibration Curves"
ORIGINATOR "Argyll dispcal"
CREATED "Mon Feb 06 20:49:17 2023"
DEVICE_CLASS "DISPLAY"
COLOR_REP "RGB"
VIDEO_LUT_CALIBRATION_POSSIBLE "YES"
TV_OUTPUT_ENCODING "NO"
DEVICE_TYPE "n"
TARGET_WHITE_XYZ "351.405861 370.128435 453.324428"
TARGET_GAMMA "sRGB"
DEGREE_OF_BLACK_OUTPUT_OFFSET "1.0"
BLACK_POINT_CORRECTION "0.0"
BLACK_NEUTRAL_BLEND_RATE "4.0"
BLACK_POINT_HACK "YES"
QUALITY "low"

BEGIN_ARGYLL_DISPCAL_ARGS
-v2 -d1 -c1 -yn -P0.998171846435,0.5,0.943642611684 -ql -t7500 -gs -f1.0 -k0 -A4.0 -b
END_ARGYLL_DISPCAL_ARGS


NUMBER_OF_FIELDS 4
BEGIN_DATA_FORMAT
RGB_I RGB_R RGB_G RGB_B
END_DATA_FORMAT

NUMBER_OF_SETS 256
BEGIN_DATA
0.00000000 0.00000000 0.00000000 0.00000000
0.00392157 0.00798177 0.00893611 0.00685885
0.00784314 0.01527690 0.01691970 0.01315410
0.01176470 0.02197040 0.02409540 0.01895260
0.01568630 0.02813360 0.03058000 0.02431080
0.01960780 0.03382730 0.03647100 0.02927710
0.02352940 0.03911780 0.04185870 0.03389760
0.02745100 0.04406450 0.04683640 0.03822780
0.03137250 0.04872450 0.05149000 0.04230850
0.03529410 0.05317250 0.05589460 0.04617560
0.03921570 0.05745970 0.06010910 0.04986760
0.04313730 0.06162200 0.06418050 0.05343340
0.04705880 0.06569190 0.06814290 0.05691320
0.05098040 0.06969500 0.07201750 0.06032750
0.05490200 0.07364040 0.07583110 0.06369340
0.05882350 0.07754120 0.07960640 0.06703030
0.06274510 0.08141430 0.08334450 0.07034500
0.06666670 0.08526510 0.08705050 0.07364350
0.07058820 0.08909240 0.09072840 0.07693700
0.07450980 0.09289490 0.09437880 0.08023840
0.07843140 0.09666620 0.09799580 0.08355400
0.08235290 0.10039400 0.10159100 0.08687680
0.08627450 0.10408700 0.10515900 0.09020060
0.09019610 0.10774500 0.10869400 0.09352280
0.09411760 0.11136600 0.11220200 0.09684210
0.09803920 0.11495100 0.11567600 0.10015400
0.10196100 0.11849300 0.11911300 0.10345200
0.10588200 0.12198800 0.12251600 0.10672200
0.10980400 0.12543600 0.12590600 0.10997300
0.11372500 0.12885600 0.12927500 0.11320400
0.11764700 0.13224200 0.13262300 0.11641100
0.12156900 0.13559700 0.13594300 0.11958700
0.12549000 0.13891300 0.13924000 0.12272500
0.12941200 0.14219400 0.14253400 0.12584200
0.13333300 0.14546700 0.14582400 0.12894000
0.13725500 0.14873400 0.14910300 0.13201100
0.14117600 0.15199600 0.15238200 0.13506000
0.14509800 0.15526300 0.15565300 0.13807400
0.14902000 0.15852300 0.15891000 0.14105200
0.15294100 0.16177700 0.16216000 0.14399500
0.15686300 0.16503500 0.16541300 0.14691500
0.16078400 0.16830700 0.16867700 0.14981300
0.16470600 0.17159800 0.17194600 0.15268600
0.16862700 0.17491000 0.17522000 0.15554900
0.17254900 0.17824400 0.17851000 0.15841200
0.17647100 0.18160800 0.18181500 0.16126600
0.18039200 0.18499400 0.18511800 0.16410800
0.18431400 0.18839000 0.18842300 0.16694500
0.18823500 0.19180500 0.19173500 0.16977400
0.19215700 0.19523400 0.19506800 0.17261000
0.19607800 0.19868900 0.19843000 0.17546600
0.20000000 0.20217500 0.20181800 0.17834800
0.20392200 0.20567400 0.20522000 0.18125600
0.20784300 0.20918000 0.20863600 0.18418600
0.21176500 0.21269000 0.21205800 0.18714000
0.21568600 0.21620100 0.21549700 0.19013100
0.21960800 0.21972400 0.21896400 0.19316100
0.22352900 0.22326500 0.22245300 0.19621200
0.22745100 0.22681200 0.22594200 0.19926800
0.23137300 0.23036100 0.22944100 0.20233400
0.23529400 0.23393100 0.23296600 0.20541500
0.23921600 0.23753000 0.23651000 0.20849400
0.24313700 0.24115800 0.24007100 0.21157100
0.24705900 0.24483500 0.24365800 0.21465300
0.25098000 0.24857700 0.24727800 0.21774700
0.25490200 0.25238500 0.25093000 0.22085500
0.25882400 0.25623100 0.25458900 0.22396800
0.26274500 0.26011000 0.25825100 0.22708700
0.26666700 0.26401800 0.26191500 0.23021800
0.27058800 0.26795600 0.26558900 0.23336600
0.27451000 0.27190800 0.26926400 0.23652400
0.27843100 0.27587100 0.27294500 0.23970200
0.28235300 0.27984100 0.27663300 0.24291000
0.28627500 0.28382600 0.28034800 0.24616700
0.29019600 0.28782200 0.28409000 0.24947400
0.29411800 0.29178400 0.28782300 0.25278900
0.29803900 0.29568700 0.29152500 0.25610100
0.30196100 0.29954800 0.29521400 0.25943300
0.30588200 0.30337700 0.29890300 0.26278600
0.30980400 0.30718400 0.30260100 0.26615300
0.31372500 0.31097100 0.30630600 0.26952700
0.31764700 0.31473100 0.30999900 0.27289700
0.32156900 0.31847800 0.31369300 0.27627100
0.32549000 0.32221500 0.31738100 0.27964300
0.32941200 0.32594700 0.32105800 0.28300900
0.33333300 0.32967600 0.32472400 0.28636900
0.33725500 0.33340700 0.32838700 0.28973400
0.34117600 0.33715800 0.33206100 0.29310300
0.34509800 0.34091900 0.33573600 0.29646100
0.34902000 0.34468300 0.33939500 0.29980400
0.35294100 0.34844600 0.34303900 0.30313200
0.35686300 0.35220200 0.34666900 0.30645500
0.36078400 0.35595500 0.35029100 0.30976200
0.36470600 0.35970000 0.35389600 0.31305300
0.36862700 0.36344700 0.35750200 0.31634400
0.37254900 0.36718400 0.36111800 0.31962400
0.37647100 0.37090000 0.36472400 0.32289000
0.38039200 0.37460700 0.36833400 0.32614200
0.38431400 0.37832200 0.37196500 0.32938600
0.38823500 0.38204900 0.37562300 0.33262300
0.39215700 0.38578000 0.37930300 0.33585200
0.39607800 0.38952500 0.38300900 0.33908100
0.40000000 0.39329700 0.38675500 0.34232700
0.40392200 0.39711000 0.39055600 0.34559100
0.40784300 0.40096500 0.39441600 0.34886900
0.41176500 0.40481400 0.39830800 0.35212500
0.41568600 0.40861800 0.40215800 0.35534500
0.41960800 0.41238200 0.40596100 0.35853700
0.42352900 0.41612500 0.40973400 0.36172400
0.42745100 0.41984600 0.41349600 0.36492200
0.43137300 0.42354500 0.41725500 0.36813300
0.43529400 0.42721400 0.42100000 0.37136100
0.43921600 0.43087900 0.42474600 0.37462400
0.44313700 0.43455500 0.42849900 0.37791800
0.44705900 0.43824400 0.43225700 0.38125000
0.45098000 0.44195600 0.43603400 0.38463300
0.45490200 0.44569400 0.43984700 0.38806000
0.45882400 0.44944300 0.44367400 0.39150200
0.46274500 0.45320700 0.44750800 0.39496800
0.46666700 0.45699800 0.45136200 0.39847400
0.47058800 0.46081800 0.45524100 0.40202300
0.47451000 0.46466300 0.45913500 0.40559500
0.47843100 0.46851900 0.46302300 0.40919500
0.48235300 0.47239500 0.46691100 0.41280500
0.48627500 0.47628200 0.47078800 0.41642000
0.49019600 0.48017700 0.47465800 0.42002900
0.49411800 0.48407500 0.47851200 0.42363100
0.49803900 0.48797300 0.48234200 0.42722400
0.50196100 0.49186800 0.48614800 0.43080900
0.50588200 0.49576000 0.48993100 0.43439200
0.50980400 0.49965600 0.49369500 0.43798500
0.51372500 0.50357600 0.49748100 0.44156900
0.51764700 0.50749900 0.50126800 0.44514000
0.52156900 0.51142300 0.50504700 0.44869900
0.52549000 0.51534800 0.50881800 0.45224800
0.52941200 0.51927400 0.51258300 0.45579000
0.53333300 0.52320900 0.51634800 0.45933300
0.53725500 0.52715300 0.52012100 0.46289000
0.54117600 0.53111200 0.52390000 0.46646500
0.54509800 0.53509300 0.52769300 0.47005200
0.54902000 0.53907700 0.53149000 0.47365700
0.55294100 0.54307400 0.53529500 0.47726300
0.55686300 0.54709200 0.53911900 0.48086300
0.56078400 0.55110900 0.54294200 0.48445700
0.56470600 0.55512700 0.54675900 0.48803700
0.56862700 0.55914500 0.55058200 0.49160700
0.57254900 0.56315700 0.55441200 0.49517400
0.57647100 0.56718000 0.55824400 0.49872500
0.58039200 0.57123700 0.56209600 0.50221400
0.58431400 0.57530400 0.56597200 0.50564800
0.58823500 0.57932800 0.56982100 0.50904100
0.59215700 0.58331600 0.57363400 0.51240800
0.59607800 0.58727500 0.57742900 0.51572900
0.60000000 0.59120900 0.58122000 0.51899900
0.60392200 0.59511800 0.58499900 0.52222200
0.60784300 0.59900700 0.58876900 0.52542200
0.61176500 0.60287500 0.59253200 0.52861100
0.61568600 0.60672000 0.59630200 0.53179100
0.61960800 0.61054500 0.60007700 0.53497900
0.62352900 0.61434800 0.60385400 0.53816400
0.62745100 0.61813200 0.60764000 0.54134200
0.63137300 0.62188700 0.61142500 0.54451900
0.63529400 0.62561900 0.61519800 0.54769900
0.63921600 0.62933900 0.61896700 0.55088000
0.64313700 0.63305400 0.62274200 0.55406300
0.64705900 0.63676000 0.62651900 0.55726000
0.65098000 0.64045700 0.63028700 0.56047700
0.65490200 0.64414900 0.63404800 0.56373800
0.65882400 0.64784700 0.63780500 0.56706800
0.66274500 0.65156700 0.64158000 0.57047700
0.66666700 0.65532900 0.64539900 0.57397500
0.67058800 0.65914900 0.64928000 0.57756600
0.67451000 0.66303200 0.65323200 0.58120800
0.67843100 0.66698000 0.65725600 0.58481400
0.68235300 0.67093300 0.66132400 0.58838300
0.68627500 0.67482900 0.66532600 0.59191500
0.69019600 0.67866900 0.66925500 0.59541800
0.69411800 0.68245500 0.67311300 0.59890600
0.69803900 0.68620000 0.67691900 0.60239100
0.70196100 0.68992000 0.68070000 0.60587900
0.70588200 0.69362900 0.68448000 0.60937000
0.70980400 0.69733700 0.68827400 0.61286000
0.71372500 0.70104200 0.69208300 0.61633400
0.71764700 0.70475200 0.69592000 0.61977900
0.72156900 0.70846500 0.69977800 0.62320600
0.72549000 0.71217200 0.70364200 0.62662000
0.72941200 0.71589700 0.70752800 0.63002800
0.73333300 0.71965800 0.71144100 0.63344200
0.73725500 0.72345900 0.71537500 0.63684800
0.74117600 0.72731500 0.71934000 0.64025600
0.74509800 0.73121800 0.72331400 0.64366500
0.74902000 0.73516000 0.72729800 0.64706800
0.75294100 0.73914900 0.73129500 0.65046700
0.75686300 0.74318400 0.73529700 0.65387800
0.76078400 0.74727300 0.73930900 0.65729200
0.76470600 0.75142400 0.74334100 0.66070900
0.76862700 0.75561300 0.74737300 0.66412600
0.77254900 0.75983000 0.75140000 0.66756100
0.77647100 0.76406500 0.75542700 0.67101100
0.78039200 0.76830400 0.75946400 0.67446700
0.78431400 0.77255300 0.76350600 0.67792500
0.78823500 0.77680200 0.76754500 0.68138400
0.79215700 0.78105900 0.77158700 0.68485600
0.79607800 0.78531700 0.77563200 0.68836500
0.80000000 0.78957300 0.77969400 0.69191900
0.80392200 0.79385000 0.78380100 0.69551200
0.80784300 0.79816500 0.78797000 0.69909800
0.81176500 0.80251000 0.79218800 0.70267000
0.81568600 0.80680100 0.79636200 0.70624300
0.81960800 0.81102700 0.80047700 0.70983100
0.82352900 0.81521800 0.80455300 0.71344700
0.82745100 0.81939800 0.80861800 0.71708900
0.83137300 0.82356900 0.81268000 0.72072800
0.83529400 0.82772200 0.81673000 0.72436300
0.83921600 0.83185200 0.82075400 0.72800400
0.84313700 0.83596300 0.82475700 0.73165500
0.84705900 0.84007900 0.82876300 0.73531200
0.85098000 0.84419900 0.83277900 0.73898000
0.85490200 0.84831700 0.83680000 0.74267200
0.85882400 0.85245000 0.84084000 0.74637200
0.86274500 0.85661500 0.84491600 0.75003000
0.86666700 0.86078600 0.84901600 0.75365200
0.87058800 0.86490400 0.85308100 0.75725300
0.87451000 0.86899000 0.85711700 0.76083700
0.87843100 0.87305500 0.86113900 0.76441300
0.88235300 0.87709900 0.86514700 0.76798200
0.88627500 0.88113700 0.86915500 0.77157400
0.89019600 0.88517900 0.87316000 0.77516500
0.89411800 0.88923900 0.87717900 0.77873500
0.89803900 0.89330100 0.88120400 0.78228800
0.90196100 0.89735700 0.88520700 0.78581900
0.90588200 0.90141100 0.88920300 0.78933300
0.90980400 0.90547400 0.89320400 0.79281700
0.91372500 0.90956400 0.89722400 0.79626100
0.91764700 0.91366800 0.90125600 0.79968200
0.92156900 0.91777900 0.90528000 0.80308600
0.92549000 0.92190400 0.90931100 0.80645900
0.92941200 0.92603500 0.91336000 0.80982000
0.93333300 0.93015300 0.91740300 0.81317100
0.93725500 0.93427400 0.92145300 0.81651100
0.94117600 0.93838600 0.92551400 0.81983300
0.94509800 0.94249600 0.92958400 0.82313600
0.94902000 0.94660100 0.93366500 0.82642400
0.95294100 0.95070500 0.93775500 0.82969700
0.95686300 0.95480900 0.94185100 0.83295400
0.96078400 0.95890800 0.94595300 0.83619600
0.96470600 0.96300400 0.95006500 0.83942300
0.96862700 0.96710200 0.95418100 0.84263100
0.97254900 0.97120000 0.95830200 0.84582100
0.97647100 0.97530000 0.96243100 0.84899300
0.98039200 0.97940200 0.96656700 0.85214800
0.98431400 0.98350500 0.97071100 0.85528500
0.98823500 0.98761100 0.97486300 0.85840400
0.99215700 0.99171900 0.97902200 0.86150600
0.99607800 0.99582900 0.98319000 0.86459000
1.00000000 0.99994100 0.98736500 0.86765800
END_DATA
CAL    

DESCRIPTOR "Argyll Calibration options and model"
ORIGINATOR "Argyll dispcal"
CREATED "Mon Feb 06 20:49:17 202"

NUMBER_OF_FIELDS 3
BEGIN_DATA_FORMAT
R_P G_P B_P
END_DATA_FORMAT

NUMBER_OF_SETS 32
BEGIN_DATA
-0.000327451 0.000473892 0.001314280
1.000327000 0.999526000 0.998686000
1.448939000 1.713220000 1.950678000
0.522961000 0.279399000 0.197291000
0.108662000 0.184543000 0.166942000
0.136897000 0.132069000 0.121784000
0.114201000 0.114368000 0.109512000
0.080152200 0.090734400 0.097395800
0.056220200 0.083213200 0.090550800
0.058337400 0.078528300 0.082483000
0.053989800 0.065015500 0.067900100
0.049606200 0.066790000 0.067775500
0.047591000 0.059826300 0.061902300
0.036742300 0.054868600 0.061877000
0.038852100 0.047904000 0.043416900
0.045910100 0.047523300 0.055143100
0.030542800 0.039528400 0.046035900
0.029838200 0.042168100 0.041594400
0.023567400 0.032422400 0.050472900
0.025596300 0.035799600 0.038315000
0.024433000 0.045458500 0.031736600
0.021902000 0.037481600 0.031642500
0.020553200 0.028673800 0.030319000
0.018155000 0.026853600 0.030161800
0.018089000 0.026981300 0.030082000
0.017404900 0.030208300 0.028799000
0.014081700 0.032135700 0.024956500
0.013932700 0.029699600 0.021730300
0.014535900 0.029168900 0.018281500
0.012881500 0.028820800 0.023262500
0.011545400 0.023095500 0.019335000
0.010317200 0.023352200 0.017672600
END_DATA
