Color_Correction/G1618-04 #1 2023-02-06 22-52 D8000 sRGB F-S XYZLUT+MTX/G1618-04 #1 2023-02-06 22-52 D8000 sRGB F-S XYZLUT+MTX.ti3
CTI3   

DESCRIPTOR "Argyll Calibration Target chart information 3"
ORIGINATOR "Argyll dispread"
CREATED "Mon Feb 06 22:58:59 2023"
DEVICE_CLASS "DISPLAY"
SINGLE_DIM_STEPS "5"
COMP_GREY_STEPS "52"
MULTI_DIM_STEPS "5"
COLOR_REP "RGB_XYZ"
TARGET_INSTRUMENT "X-Rite i1 DisplayPro, ColorMunki Display"
DISPLAY_TYPE_REFRESH "NO"
DISPLAY_TYPE_BASE_ID "1"
INSTRUMENT_TYPE_SPECTRAL "NO"
LUMINANCE_XYZ_CDM2 "341.624389 359.578977 464.722250"
NORMALIZED_TO_Y_100 "YES"
VIDEO_LUT_CALIBRATION_POSSIBLE "YES"

BEGIN_ARGYLL_COLPROF_ARGS
-v -qh -aX -bn -C "No copyright. Created with DisplayCAL 3.8.9.3 and ArgyllCMS 2.1.2" -M "G1618-04"
END_ARGYLL_COLPROF_ARGS

OBSERVER "1931_2"
USE_BLACK_POINT_COMPENSATION "NO"
BLACK_POINT_CORRECTION "0.0"
HIRES_B2A "YES"
HIRES_B2A_SIZE "-1"
SMOOTH_B2A "YES"
PATCH_SEQUENCE "OPTIMIZE_DISPLAY_RESPONSE_DELAY"

NUMBER_OF_FIELDS 7
BEGIN_DATA_FORMAT
SAMPLE_ID RGB_R RGB_G RGB_B XYZ_X XYZ_Y XYZ_Z
END_DATA_FORMAT

NUMBER_OF_SETS 175
BEGIN_DATA
1 100.0000 100.0000 100.0000 95.00677 100.0000 129.2407
2 100.0000 100.0000 75.00000 84.27129 96.47514 73.41244
3 100.0000 100.0000 100.0000 95.09048 100.0844 129.4498
4 100.0000 100.0000 100.0000 95.14237 100.1473 129.5548
5 0.000000 0.000000 0.000000 0.115126 0.102955 0.274025
6 25.00000 0.000000 0.000000 1.799610 1.017320 0.322814
7 50.00000 0.000000 0.000000 7.025929 3.858233 0.482829
8 75.00000 0.000000 0.000000 17.24189 9.404509 0.774731
9 100.0000 0.000000 0.000000 34.41056 18.72079 1.283574
10 100.0000 0.000000 25.00000 35.51030 19.10062 6.863075
11 100.0000 25.00000 25.00000 37.29707 23.01495 7.376824
12 100.0000 50.00000 25.00000 43.98787 35.29808 9.535644
13 100.0000 75.00000 25.00000 55.55985 57.36813 12.98284
14 0.000000 0.000000 25.00000 1.136430 0.437405 5.713702
15 25.00000 0.000000 25.00000 2.870694 1.371127 5.942420
16 75.00000 0.000000 100.0000 39.14343 16.69762 114.6518
17 100.0000 0.000000 100.0000 56.03839 25.84448 115.9046
18 1.960800 1.960800 1.960800 0.204616 0.194703 0.409780
19 3.921600 3.921600 3.921600 0.384994 0.390230 0.610480
20 5.882400 5.882400 5.882400 0.554737 0.558023 0.880154
21 7.843100 7.843100 7.843100 0.742339 0.787453 1.078663
22 9.803900 9.803900 9.803900 1.016017 1.060733 1.429772
23 11.76500 11.76500 11.76500 1.334137 1.388346 1.934737
24 13.72600 13.72600 13.72600 1.635258 1.703659 2.313839
25 15.68600 15.68600 15.68600 2.051512 2.138590 2.845020
26 17.64700 17.64700 17.64700 2.606286 2.748985 3.539452
27 19.60800 19.60800 19.60800 3.101819 3.250969 4.273674
28 21.56900 21.56900 21.56900 3.663274 3.833631 5.096390
29 23.52900 23.52900 23.52900 4.304808 4.556919 5.761492
30 27.45100 27.45100 27.45100 5.838850 6.124575 7.948710
31 29.41200 29.41200 29.41200 6.703970 7.082702 9.340107
32 31.37300 31.37300 31.37300 7.643754 8.066137 10.55843
33 33.33300 33.33300 33.33300 8.516301 9.027033 11.50382
34 35.29400 35.29400 35.29400 9.647101 10.20348 13.38855
35 37.25500 37.25500 37.25500 10.81760 11.40108 14.75053
36 39.21600 39.21600 39.21600 11.92352 12.58236 16.21838
37 41.17600 41.17600 41.17600 13.34651 14.06842 18.41785
38 43.13700 43.13700 43.13700 14.65034 15.59419 19.47330
39 45.09800 45.09800 45.09800 16.09940 17.17459 21.67509
40 47.05900 47.05900 47.05900 18.02945 18.97641 24.54856
41 49.02000 49.02000 49.02000 19.24694 20.28945 25.96516
42 50.98000 50.98000 50.98000 20.79248 21.90145 27.79950
43 52.94100 52.94100 52.94100 23.09523 24.30467 30.89047
44 54.90200 54.90200 54.90200 25.07138 26.43809 33.40793
45 56.86300 56.86300 56.86300 26.88520 28.28640 36.18201
46 58.82400 58.82400 58.82400 28.95564 30.38495 39.42660
47 60.78400 60.78400 60.78400 31.22775 32.86591 41.99882
48 62.74500 62.74500 62.74500 32.93400 34.74614 44.46386
49 64.70600 64.70600 64.70600 35.38414 37.08087 48.33146
50 66.66700 66.66700 66.66700 37.97622 39.92495 51.32379
51 68.62700 68.62700 68.62700 40.84577 43.04651 55.20471
52 70.58800 70.58800 70.58800 43.57741 46.01199 58.87574
53 72.54900 72.54900 72.54900 45.80202 48.32178 61.23484
54 76.47100 76.47100 76.47100 51.45379 54.18913 70.39695
55 78.43100 78.43100 78.43100 54.22254 57.23700 73.39066
56 80.39200 80.39200 80.39200 57.32188 60.33299 77.68156
57 82.35300 82.35300 82.35300 61.11272 64.29430 83.02463
58 84.31400 84.31400 84.31400 64.44787 67.94707 87.64015
59 86.27500 86.27500 86.27500 68.02411 71.68804 91.88571
60 88.23500 88.23500 88.23500 71.92044 75.73442 97.54174
61 90.19600 90.19600 90.19600 75.72966 79.58234 103.1416
62 92.15700 92.15700 92.15700 79.17853 83.24373 107.3362
63 94.11800 94.11800 94.11800 82.60617 86.76442 111.9445
64 96.07800 96.07800 96.07800 86.55271 91.24835 117.8746
65 98.03900 98.03900 98.03900 91.17059 95.88856 124.3118
66 25.00000 25.00000 0.000000 3.823746 4.840775 0.894465
67 50.00000 25.00000 0.000000 9.297621 7.857910 1.066550
68 75.00000 25.00000 0.000000 19.40687 13.31622 1.353867
69 100.0000 25.00000 0.000000 36.17127 22.58474 1.883191
70 100.0000 50.00000 0.000000 42.74421 34.76198 3.717612
71 50.00000 50.00000 0.000000 15.52173 19.73299 2.865572
72 75.00000 50.00000 0.000000 25.73122 25.19697 3.149071
73 25.00000 50.00000 0.000000 10.07616 16.69322 2.692677
74 25.00000 75.00000 0.000000 21.74990 39.07616 6.096520
75 50.00000 75.00000 0.000000 27.27522 42.19712 6.276625
76 75.00000 75.00000 0.000000 37.52077 47.80839 6.583078
77 100.0000 75.00000 0.000000 54.54362 57.27710 7.137333
78 25.00000 100.0000 0.000000 40.59802 75.15103 11.58625
79 50.00000 100.0000 0.000000 46.06327 78.14745 11.76464
80 75.00000 100.0000 0.000000 55.91899 83.04282 11.94123
81 100.0000 100.0000 0.000000 73.14472 93.14037 12.58879
82 100.0000 100.0000 25.00000 73.88013 92.72332 18.34964
83 50.00000 0.000000 25.00000 8.230367 4.281224 6.129984
84 50.00000 25.00000 50.00000 13.92980 9.414681 25.66211
85 0.000000 25.00000 0.000000 2.065161 3.825113 0.832225
86 0.000000 25.00000 25.00000 3.110585 4.178826 6.433530
87 25.49000 25.49000 25.49000 5.052801 5.347289 6.805596
88 50.00000 25.00000 25.00000 10.42996 8.218308 6.848795
89 75.00000 25.00000 25.00000 20.60118 13.82165 7.099447
90 0.000000 50.00000 0.000000 8.171504 15.46781 2.599356
91 0.000000 50.00000 25.00000 9.454713 16.21264 8.314726
92 25.00000 50.00000 25.00000 11.17418 17.16960 8.325220
93 50.00000 50.00000 25.00000 16.68213 20.10295 8.666265
94 75.00000 50.00000 25.00000 26.99540 25.80679 8.990483
95 0.000000 75.00000 0.000000 19.93887 37.92060 6.008667
96 0.000000 75.00000 25.00000 21.10110 38.47768 11.57442
97 25.00000 75.00000 25.00000 22.88692 39.51848 11.71141
98 50.00000 75.00000 25.00000 28.50126 42.67694 11.85463
99 75.00000 75.00000 25.00000 38.81569 48.26685 12.35364
100 0.000000 100.0000 0.000000 38.47575 73.42512 11.41104
101 0.000000 100.0000 25.00000 39.80473 74.30887 17.31092
102 25.00000 100.0000 25.00000 41.62469 75.37986 17.44786
103 50.00000 100.0000 25.00000 46.86095 77.73795 17.52385
104 75.00000 100.0000 25.00000 57.27463 83.95961 17.98853
105 0.000000 0.000000 50.00000 4.582892 1.574796 24.06707
106 25.00000 0.000000 50.00000 6.349855 2.524990 24.30608
107 50.00000 0.000000 50.00000 11.74538 5.455176 24.55283
108 75.00000 0.000000 50.00000 22.03528 11.06025 24.53084
109 100.0000 0.000000 50.00000 38.93726 20.22724 25.10521
110 100.0000 0.000000 75.00000 45.35043 22.29506 60.64864
111 100.0000 25.00000 75.00000 47.64819 26.44859 61.08198
112 75.00000 0.000000 25.00000 18.66399 9.955438 6.339029
113 75.00000 25.00000 50.00000 24.08314 15.00825 25.27830
114 100.0000 25.00000 50.00000 41.32331 24.43724 27.26115
115 25.00000 25.00000 50.00000 8.533475 6.446461 25.46634
116 25.00000 50.00000 50.00000 14.92859 18.46129 27.86342
117 75.00000 50.00000 50.00000 30.60537 26.97694 27.82668
118 100.0000 50.00000 50.00000 47.53580 36.38505 28.93040
119 100.0000 50.00000 75.00000 53.55466 38.22385 62.33700
120 25.00000 75.00000 50.00000 26.57075 40.80797 30.91329
121 50.00000 75.00000 50.00000 32.14777 43.94791 31.10926
122 75.00000 75.00000 50.00000 42.58836 49.71397 31.71472
123 100.0000 75.00000 50.00000 59.40875 59.01337 32.34817
124 100.0000 75.00000 75.00000 65.95234 61.20683 66.89954
125 25.00000 100.0000 50.00000 45.39593 76.60207 37.32379
126 50.00000 100.0000 50.00000 51.04793 79.70292 37.30730
127 75.00000 100.0000 50.00000 60.99999 85.17170 37.76106
128 100.0000 100.0000 50.00000 78.04089 94.60624 38.86231
129 25.00000 0.000000 75.00000 12.67430 4.609606 58.07712
130 50.00000 0.000000 75.00000 18.37108 7.658453 59.20649
131 75.00000 0.000000 75.00000 28.53087 13.17099 59.70763
132 75.00000 25.00000 75.00000 30.96794 17.32018 60.91997
133 75.00000 50.00000 100.0000 47.72629 32.70569 118.3681
134 25.00000 25.00000 75.00000 15.17504 8.649128 60.85064
135 25.00000 50.00000 100.0000 31.95741 24.05022 118.6641
136 0.000000 25.00000 50.00000 6.709487 5.407544 25.33058
137 0.000000 25.00000 75.00000 13.17392 7.540285 59.83011
138 0.000000 50.00000 75.00000 19.50911 19.36058 62.48370
139 25.00000 50.00000 75.00000 21.49107 20.59709 62.83011
140 50.00000 50.00000 75.00000 26.99528 23.65298 62.86883
141 75.00000 50.00000 75.00000 37.17813 29.25923 62.69345
142 74.51000 74.51000 74.51000 48.56140 51.15116 65.73612
143 0.000000 75.00000 75.00000 31.22866 41.61921 66.20723
144 25.00000 75.00000 75.00000 33.29292 43.10053 66.19367
145 50.00000 75.00000 75.00000 38.89895 46.19741 66.43956
146 0.000000 75.00000 50.00000 24.69918 39.60403 30.93018
147 0.000000 100.0000 50.00000 43.34121 75.47111 36.09526
148 0.000000 100.0000 75.00000 50.04155 77.57339 71.99670
149 25.00000 100.0000 75.00000 51.92515 78.68726 72.34204
150 50.00000 100.0000 75.00000 57.46376 81.70334 72.63952
151 75.00000 100.0000 75.00000 67.67533 87.33653 72.25526
152 75.00000 100.0000 100.0000 77.96260 90.05375 128.6448
153 25.00000 0.000000 100.0000 23.01367 7.995622 113.0249
154 50.00000 0.000000 100.0000 28.62153 10.99396 114.3642
155 0.000000 0.000000 75.00000 11.08424 3.708282 58.66996
156 0.000000 0.000000 100.0000 21.67795 7.181003 115.1275
157 0.000000 25.00000 100.0000 23.76841 11.05874 116.1324
158 25.00000 25.00000 100.0000 25.63512 12.11944 116.4243
159 50.00000 25.00000 100.0000 31.13874 15.12574 116.6703
160 75.00000 25.00000 100.0000 41.18889 20.64300 115.8693
161 100.0000 25.00000 100.0000 58.00234 29.91613 116.8154
162 100.0000 50.00000 100.0000 64.73847 42.11328 119.6782
163 50.00000 25.00000 75.00000 20.80595 11.74117 61.51341
164 50.00000 50.00000 100.0000 37.60760 27.19805 118.9104
165 0.000000 50.00000 50.00000 12.89936 17.17935 27.20359
166 0.000000 50.00000 100.0000 30.08843 22.78503 118.8356
167 0.000000 75.00000 100.0000 41.49843 44.81476 121.3075
168 25.00000 75.00000 100.0000 43.85323 46.39920 123.2209
169 50.00000 75.00000 100.0000 49.62221 49.63504 123.3620
170 75.00000 75.00000 100.0000 59.55871 55.13754 122.6162
171 100.0000 75.00000 100.0000 76.47837 64.72877 122.5773
172 0.000000 100.0000 100.0000 60.11668 80.79199 126.0070
173 25.00000 100.0000 100.0000 62.50858 82.07349 128.3270
174 50.00000 100.0000 100.0000 68.11864 85.13830 128.5717
175 100.0000 100.0000 100.0000 95.07669 100.0257 129.7094
END_DATA
CAL    

DESCRIPTOR "Argyll Device Calibration State"
ORIGINATOR "Argyll dispread"
CREATED "Mon Feb 06 22:58:59 2023"
DEVICE_CLASS "DISPLAY"
COLOR_REP "RGB"

BEGIN_ARGYLL_DISPCAL_ARGS
-v2 -ql -t8000 -gs -f1.0 -k0 -A4.0 -d1 -c1 -yn -P0.998171846435,0.5,0.943642611684
END_ARGYLL_DISPCAL_ARGS


NUMBER_OF_FIELDS 4
BEGIN_DATA_FORMAT
RGB_I RGB_R RGB_G RGB_B
END_DATA_FORMAT

NUMBER_OF_SETS 256
BEGIN_DATA
0.00000000 0.00000000 0.00000000 0.00000000
0.00392157 0.00929656 0.00985078 0.00768688
0.00784314 0.01750740 0.01843680 0.01455450
0.01176470 0.02481230 0.02598690 0.02072730
0.01568630 0.03135330 0.03267790 0.02630550
0.01960780 0.03725200 0.03866430 0.03137130
0.02352940 0.04263370 0.04411260 0.03600410
0.02745100 0.04759800 0.04913380 0.04028130
0.03137250 0.05222490 0.05381150 0.04427490
0.03529410 0.05658810 0.05822940 0.04803770
0.03921570 0.06073080 0.06243940 0.05163550
0.04313730 0.06469090 0.06649400 0.05510540
0.04705880 0.06852270 0.07043030 0.05847740
0.05098040 0.07225860 0.07427470 0.06178750
0.05490200 0.07592050 0.07804640 0.06506330
0.05882350 0.07952620 0.08175330 0.06832540
0.06274510 0.08308460 0.08540350 0.07158770
0.06666670 0.08660820 0.08900340 0.07486510
0.07058820 0.09009740 0.09256230 0.07816340
0.07450980 0.09356640 0.09607910 0.08146980
0.07843140 0.09701500 0.09956770 0.08478000
0.08235290 0.10045800 0.10303600 0.08809850
0.08627450 0.10390600 0.10648300 0.09143360
0.09019610 0.10735900 0.10991100 0.09477280
0.09411760 0.11081700 0.11333100 0.09810590
0.09803920 0.11428300 0.11674000 0.10143300
0.10196100 0.11775400 0.12013900 0.10474500
0.10588200 0.12123000 0.12355300 0.10803300
0.10980400 0.12472900 0.12698400 0.11130800
0.11372500 0.12825500 0.13041500 0.11458100
0.11764700 0.13178800 0.13384900 0.11784300
0.12156900 0.13532900 0.13726900 0.12109800
0.12549000 0.13884900 0.14068600 0.12432500
0.12941200 0.14235600 0.14410800 0.12752300
0.13333300 0.14586300 0.14751400 0.13070200
0.13725500 0.14936000 0.15090100 0.13384100
0.14117600 0.15284700 0.15427700 0.13694900
0.14509800 0.15633300 0.15762500 0.14003300
0.14902000 0.15980600 0.16095000 0.14309500
0.15294100 0.16327000 0.16426200 0.14613800
0.15686300 0.16673000 0.16756900 0.14917300
0.16078400 0.17018800 0.17086900 0.15219800
0.16470600 0.17363100 0.17416100 0.15519600
0.16862700 0.17705900 0.17744700 0.15816700
0.17254900 0.18047500 0.18073700 0.16111600
0.17647100 0.18388000 0.18402600 0.16404400
0.18039200 0.18726200 0.18730900 0.16695300
0.18431400 0.19063200 0.19060200 0.16986200
0.18823500 0.19399500 0.19391900 0.17277200
0.19215700 0.19735700 0.19727500 0.17568500
0.19607800 0.20073200 0.20067800 0.17861700
0.20000000 0.20412900 0.20411600 0.18157300
0.20392200 0.20752200 0.20757900 0.18454500
0.20784300 0.21090800 0.21105600 0.18753000
0.21176500 0.21428500 0.21454300 0.19052100
0.21568600 0.21766400 0.21805400 0.19353000
0.21960800 0.22105500 0.22159500 0.19657000
0.22352900 0.22445800 0.22514200 0.19964100
0.22745100 0.22785900 0.22868200 0.20271800
0.23137300 0.23126000 0.23222900 0.20580200
0.23529400 0.23467300 0.23578700 0.20890800
0.23921600 0.23810400 0.23934900 0.21203700
0.24313700 0.24155800 0.24291800 0.21518300
0.24705900 0.24504100 0.24650600 0.21835000
0.25098000 0.24857000 0.25012500 0.22154600
0.25490200 0.25215700 0.25376100 0.22478700
0.25882400 0.25577300 0.25740000 0.22806000
0.26274500 0.25940700 0.26104100 0.23136200
0.26666700 0.26305900 0.26469500 0.23469500
0.27058800 0.26673500 0.26835900 0.23807200
0.27451000 0.27042000 0.27202800 0.24147800
0.27843100 0.27409500 0.27571200 0.24489800
0.28235300 0.27777500 0.27941400 0.24832700
0.28627500 0.28145800 0.28314700 0.25178100
0.29019600 0.28515200 0.28689600 0.25526800
0.29411800 0.28884900 0.29061200 0.25874500
0.29803900 0.29249700 0.29428700 0.26218900
0.30196100 0.29609000 0.29792700 0.26561400
0.30588200 0.29963700 0.30155000 0.26902200
0.30980400 0.30315600 0.30516200 0.27241100
0.31372500 0.30666400 0.30875400 0.27579300
0.31764700 0.31016200 0.31232100 0.27916400
0.32156900 0.31364400 0.31587800 0.28254300
0.32549000 0.31713200 0.31941200 0.28591000
0.32941200 0.32062500 0.32291800 0.28925100
0.33333300 0.32411500 0.32639600 0.29256800
0.33725500 0.32760000 0.32986000 0.29586300
0.34117600 0.33108800 0.33333100 0.29915200
0.34509800 0.33459200 0.33681000 0.30242300
0.34902000 0.33812200 0.34027900 0.30566200
0.35294100 0.34166400 0.34373700 0.30886700
0.35686300 0.34521900 0.34718300 0.31202500
0.36078400 0.34878000 0.35062200 0.31514200
0.36470600 0.35234600 0.35405300 0.31822100
0.36862700 0.35592200 0.35748900 0.32128300
0.37254900 0.35951900 0.36094600 0.32434200
0.37647100 0.36315400 0.36441500 0.32740000
0.38039200 0.36682100 0.36789800 0.33047000
0.38431400 0.37051500 0.37141400 0.33356300
0.38823500 0.37425200 0.37497500 0.33668600
0.39215700 0.37804100 0.37856700 0.33983800
0.39607800 0.38187200 0.38219500 0.34302800
0.40000000 0.38574400 0.38587300 0.34627200
0.40392200 0.38967000 0.38960900 0.34959000
0.40784300 0.39366000 0.39341900 0.35299600
0.41176500 0.39772200 0.39730700 0.35649000
0.41568600 0.40184800 0.40120100 0.35999300
0.41960800 0.40593300 0.40504800 0.36347500
0.42352900 0.40993000 0.40885100 0.36694000
0.42745100 0.41384500 0.41262400 0.37039600
0.43137300 0.41768400 0.41637600 0.37385200
0.43529400 0.42145700 0.42011400 0.37730300
0.43921600 0.42516300 0.42382800 0.38072900
0.44313700 0.42880000 0.42753900 0.38414300
0.44705900 0.43238900 0.43123400 0.38752800
0.45098000 0.43593800 0.43491000 0.39087700
0.45490200 0.43945600 0.43859000 0.39421000
0.45882400 0.44297000 0.44229200 0.39753200
0.46274500 0.44648700 0.44598800 0.40081800
0.46666700 0.44999600 0.44967800 0.40408500
0.47058800 0.45350300 0.45337700 0.40733900
0.47451000 0.45702600 0.45709300 0.41058600
0.47843100 0.46057900 0.46081300 0.41382400
0.48235300 0.46416100 0.46452100 0.41705900
0.48627500 0.46776500 0.46823200 0.42030800
0.49019600 0.47141000 0.47194100 0.42357800
0.49411800 0.47509600 0.47566300 0.42688200
0.49803900 0.47882700 0.47939400 0.43022500
0.50196100 0.48259800 0.48312400 0.43359800
0.50588200 0.48640000 0.48685100 0.43700200
0.50980400 0.49023100 0.49057500 0.44043700
0.51372500 0.49409000 0.49430300 0.44391000
0.51764700 0.49798500 0.49806500 0.44742900
0.52156900 0.50193800 0.50185000 0.45094800
0.52549000 0.50591100 0.50564100 0.45446500
0.52941200 0.50988700 0.50943500 0.45797900
0.53333300 0.51386700 0.51323500 0.46149100
0.53725500 0.51785000 0.51704600 0.46501000
0.54117600 0.52184500 0.52087700 0.46853300
0.54509800 0.52585900 0.52472500 0.47204200
0.54902000 0.52989800 0.52858000 0.47553400
0.55294100 0.53395800 0.53243700 0.47898600
0.55686300 0.53801200 0.53628400 0.48240600
0.56078400 0.54204300 0.54013200 0.48581400
0.56470600 0.54607100 0.54397500 0.48921300
0.56862700 0.55008600 0.54779800 0.49261700
0.57254900 0.55408000 0.55160900 0.49602800
0.57647100 0.55805900 0.55542400 0.49944600
0.58039200 0.56202500 0.55923800 0.50287100
0.58431400 0.56599300 0.56307100 0.50632600
0.58823500 0.56999500 0.56694100 0.50980900
0.59215700 0.57402400 0.57080600 0.51326100
0.59607800 0.57801300 0.57462500 0.51667700
0.60000000 0.58196000 0.57842300 0.52007900
0.60392200 0.58588400 0.58222600 0.52348900
0.60784300 0.58980200 0.58604700 0.52690700
0.61176500 0.59371500 0.58988100 0.53032900
0.61568600 0.59762000 0.59372600 0.53375300
0.61960800 0.60151900 0.59759500 0.53719800
0.62352900 0.60541500 0.60148900 0.54066900
0.62745100 0.60930900 0.60540700 0.54416300
0.63137300 0.61319800 0.60935500 0.54768600
0.63529400 0.61708300 0.61332400 0.55123200
0.63921600 0.62094600 0.61729100 0.55479700
0.64313700 0.62479500 0.62125300 0.55838300
0.64705900 0.62862300 0.62520900 0.56199000
0.65098000 0.63243300 0.62915600 0.56560100
0.65490200 0.63622000 0.63307900 0.56920300
0.65882400 0.64000000 0.63698900 0.57279100
0.66274500 0.64377900 0.64088700 0.57639100
0.66666700 0.64757500 0.64479700 0.58002400
0.67058800 0.65140300 0.64874300 0.58372100
0.67451000 0.65528100 0.65275000 0.58749500
0.67843100 0.65922500 0.65683400 0.59134900
0.68235300 0.66323900 0.66099700 0.59525200
0.68627500 0.66732500 0.66517600 0.59906800
0.69019600 0.67139100 0.66926100 0.60277800
0.69411800 0.67535900 0.67325100 0.60639000
0.69803900 0.67922900 0.67715800 0.60992300
0.70196100 0.68300600 0.68100900 0.61341100
0.70588200 0.68670500 0.68484000 0.61687500
0.70980400 0.69035200 0.68866900 0.62033000
0.71372500 0.69397000 0.69250500 0.62376800
0.71764700 0.69757000 0.69635000 0.62718800
0.72156900 0.70115400 0.70022100 0.63059300
0.72549000 0.70474900 0.70411200 0.63398500
0.72941200 0.70836100 0.70801900 0.63737000
0.73333300 0.71198900 0.71195200 0.64074400
0.73725500 0.71565300 0.71590000 0.64410400
0.74117600 0.71936600 0.71985800 0.64746600
0.74509800 0.72312400 0.72383500 0.65083400
0.74902000 0.72693100 0.72781600 0.65421700
0.75294100 0.73078300 0.73182300 0.65762800
0.75686300 0.73467000 0.73584400 0.66105600
0.76078400 0.73861700 0.73987600 0.66450100
0.76470600 0.74261700 0.74392300 0.66797200
0.76862700 0.74667600 0.74799100 0.67147200
0.77254900 0.75080800 0.75206500 0.67500100
0.77647100 0.75498800 0.75614400 0.67855700
0.78039200 0.75920800 0.76023100 0.68214500
0.78431400 0.76346100 0.76433900 0.68577100
0.78823500 0.76774000 0.76843900 0.68942400
0.79215700 0.77205100 0.77253300 0.69310600
0.79607800 0.77637500 0.77663900 0.69681500
0.80000000 0.78072000 0.78075700 0.70054700
0.80392200 0.78508900 0.78491700 0.70434400
0.80784300 0.78949400 0.78915000 0.70825200
0.81176500 0.79397500 0.79347100 0.71227300
0.81568600 0.79856300 0.79778900 0.71629800
0.81960800 0.80320900 0.80203500 0.72029800
0.82352900 0.80776500 0.80622400 0.72427900
0.82745100 0.81223100 0.81039000 0.72826400
0.83137300 0.81665400 0.81455000 0.73225200
0.83529400 0.82107200 0.81871500 0.73623600
0.83921600 0.82550400 0.82287600 0.74021500
0.84313700 0.82994300 0.82702800 0.74418100
0.84705900 0.83438100 0.83118900 0.74812300
0.85098000 0.83881100 0.83536700 0.75203800
0.85490200 0.84323200 0.83955900 0.75592500
0.85882400 0.84764100 0.84376800 0.75981800
0.86274500 0.85205800 0.84801700 0.76372500
0.86666700 0.85650700 0.85230100 0.76758500
0.87058800 0.86095500 0.85654300 0.77138800
0.87451000 0.86533600 0.86074800 0.77516500
0.87843100 0.86967000 0.86493800 0.77891400
0.88235300 0.87397800 0.86911000 0.78263200
0.88627500 0.87825400 0.87326600 0.78632300
0.89019600 0.88250000 0.87739800 0.78998800
0.89411800 0.88671500 0.88152200 0.79360700
0.89803900 0.89090200 0.88561800 0.79716200
0.90196100 0.89503900 0.88966600 0.80067000
0.90588200 0.89913000 0.89368400 0.80412700
0.90980400 0.90318900 0.89769000 0.80754300
0.91372500 0.90724900 0.90169400 0.81092000
0.91764700 0.91132200 0.90568600 0.81426600
0.92156900 0.91538500 0.90965700 0.81759600
0.92549000 0.91944600 0.91362900 0.82093100
0.92941200 0.92352500 0.91761800 0.82427000
0.93333300 0.92761100 0.92159600 0.82762000
0.93725500 0.93171000 0.92559100 0.83100900
0.94117600 0.93583800 0.92959700 0.83442100
0.94509800 0.93996900 0.93362200 0.83786900
0.94902000 0.94413100 0.93767200 0.84135400
0.95294100 0.94832200 0.94174700 0.84487800
0.95686300 0.95253900 0.94583700 0.84843900
0.96078400 0.95677800 0.94994800 0.85204000
0.96470600 0.96103300 0.95407100 0.85567400
0.96862700 0.96530100 0.95820000 0.85932700
0.97254900 0.96957500 0.96233100 0.86298800
0.97647100 0.97385700 0.96646700 0.86665200
0.98039200 0.97814700 0.97060700 0.87032100
0.98431400 0.98244500 0.97475100 0.87399400
0.98823500 0.98675100 0.97889900 0.87767100
0.99215700 0.99106600 0.98305100 0.88135300
0.99607800 0.99538900 0.98720700 0.88503800
1.00000000 0.99972100 0.99136800 0.88872800
END_DATA
