Color_Correction/G1618-04 #1 2023-02-06 22-52 D8000 sRGB F-S XYZLUT+MTX/G1618-04 #1 2023-02-06 22-52 D8000 sRGB F-S XYZLUT+MTX.ti1
CTI1   

DESCRIPTOR "Argyll Calibration Target chart information 1"
ORIGINATOR "Argyll targen"
CREATED "Thu Aug 31 12:05:52 2017"
APPROX_WHITE_POINT "95.106486 100.000000 108.844025"
COLOR_REP "RGB"
WHITE_COLOR_PATCHES "4"
BLACK_COLOR_PATCHES "4"
SINGLE_DIM_STEPS "5"
COMP_GREY_STEPS "52"
MULTI_DIM_STEPS "5"

NUMBER_OF_FIELDS 7
BEGIN_DATA_FORMAT
SAMPLE_ID RGB_R RGB_G RGB_B XYZ_X XYZ_Y XYZ_Z
END_DATA_FORMAT

NUMBER_OF_SETS 175
BEGIN_DATA
1 100.00 100.00 100.00 95.106 100.00 108.84
2 100.00 100.00 75.000 86.573 96.587 63.899
3 100.00 100.00 100.00 95.106 100.00 108.84
4 100.00 100.00 100.00 95.106 100.00 108.84
5 0.0000 0.0000 0.0000 1.0000 1.0000 1.0000
6 25.000 0.0000 0.0000 3.0773 2.0711 1.0973
7 50.000 0.0000 0.0000 9.7393 5.5060 1.4095
8 75.000 0.0000 0.0000 22.335 12.000 1.9997
9 100.00 0.0000 0.0000 41.830 22.052 2.9132
10 100.00 0.0000 25.000 42.739 22.416 7.7021
11 100.00 25.000 25.000 44.541 26.018 8.3026
12 100.00 50.000 25.000 50.318 37.570 10.228
13 100.00 75.000 25.000 61.239 59.411 13.869
14 0.0000 0.0000 25.000 1.9092 1.3636 5.7889
15 25.000 0.0000 25.000 3.9865 2.4347 5.8863
16 75.000 0.0000 100.00 40.206 19.148 96.129
17 100.00 0.0000 100.00 59.701 29.199 97.042
18 1.9608 1.9608 1.9608 1.1428 1.1502 1.1637
19 3.9216 3.9216 3.9216 1.2856 1.3005 1.3273
20 5.8824 5.8824 5.8824 1.4495 1.4729 1.5152
21 7.8431 7.8431 7.8431 1.6583 1.6925 1.7544
22 9.8039 9.8039 9.8039 1.9148 1.9624 2.0484
23 11.765 11.765 11.765 2.2218 2.2853 2.4001
24 13.726 13.726 13.726 2.5817 2.6639 2.8126
25 15.686 15.686 15.686 2.9968 3.1007 3.2883
26 17.647 17.647 17.647 3.4695 3.5979 3.8300
27 19.608 19.608 19.608 4.0016 4.1577 4.4398
28 21.569 21.569 21.569 4.5953 4.7822 5.1201
29 23.529 23.529 23.529 5.2523 5.4734 5.8731
30 27.451 27.451 27.451 6.7637 7.0634 7.6050
31 29.412 29.412 29.412 7.6213 7.9656 8.5879
32 31.373 31.373 31.373 8.5492 8.9418 9.6512
33 33.333 33.333 33.333 9.5488 9.9933 10.797
34 35.294 35.294 35.294 10.622 11.122 12.026
35 37.255 37.255 37.255 11.769 12.329 13.341
36 39.216 39.216 39.216 12.993 13.616 14.743
37 41.176 41.176 41.176 14.294 14.985 16.234
38 43.137 43.137 43.137 15.674 16.437 17.816
39 45.098 45.098 45.098 17.134 17.973 19.489
40 47.059 47.059 47.059 18.675 19.594 21.255
41 49.020 49.020 49.020 20.299 21.303 23.117
42 50.980 50.980 50.980 22.007 23.100 25.074
43 52.941 52.941 52.941 23.800 24.986 27.129
44 54.902 54.902 54.902 25.679 26.963 29.282
45 56.863 56.863 56.863 27.646 29.032 31.536
46 58.824 58.824 58.824 29.701 31.194 33.891
47 60.784 60.784 60.784 31.846 33.450 36.349
48 62.745 62.745 62.745 34.081 35.802 38.911
49 64.706 64.706 64.706 36.409 38.250 41.578
50 66.667 66.667 66.667 38.829 40.796 44.351
51 68.627 68.627 68.627 41.343 43.440 47.232
52 70.588 70.588 70.588 43.951 46.185 50.221
53 72.549 72.549 72.549 46.656 49.030 53.321
54 76.471 76.471 76.471 52.356 55.027 59.853
55 78.431 78.431 78.431 55.354 58.180 63.289
56 80.392 80.392 80.392 58.452 61.439 66.838
57 82.353 82.353 82.353 61.650 64.803 70.503
58 84.314 84.314 84.314 64.949 68.275 74.285
59 86.275 86.275 86.275 68.351 71.854 78.183
60 88.235 88.235 88.235 71.857 75.541 82.200
61 90.196 90.196 90.196 75.466 79.338 86.337
62 92.157 92.157 92.157 79.181 83.246 90.594
63 94.118 94.118 94.118 83.001 87.265 94.972
64 96.078 96.078 96.078 86.929 91.397 99.472
65 98.039 98.039 98.039 90.963 95.641 104.10
66 25.000 25.000 0.0000 4.8786 5.6731 1.6978
67 50.000 25.000 0.0000 11.541 9.1081 2.0099
68 75.000 25.000 0.0000 24.136 15.602 2.6001
69 100.00 25.000 0.0000 43.631 25.654 3.5137
70 100.00 50.000 0.0000 49.408 37.206 5.4393
71 50.000 50.000 0.0000 17.318 20.660 3.9356
72 75.000 50.000 0.0000 29.913 27.154 4.5258
73 25.000 50.000 0.0000 10.655 17.225 3.6234
74 25.000 75.000 0.0000 21.577 39.066 7.2641
75 50.000 75.000 0.0000 28.239 42.501 7.5762
76 75.000 75.000 0.0000 40.835 48.995 8.1664
77 100.00 75.000 0.0000 60.330 59.047 9.0799
78 25.000 100.00 0.0000 38.482 72.872 12.899
79 50.000 100.00 0.0000 45.145 76.307 13.211
80 75.000 100.00 0.0000 57.740 82.801 13.802
81 100.00 100.00 0.0000 77.235 92.853 14.715
82 100.00 100.00 25.000 78.145 93.216 19.504
83 50.000 0.0000 25.000 10.649 5.8697 6.1984
84 50.000 25.000 50.000 15.366 10.638 22.157
85 0.0000 25.000 0.0000 2.8013 4.6021 1.6004
86 0.0000 25.000 25.000 3.7105 4.9657 6.3893
87 25.490 25.490 25.490 5.9745 6.2332 6.7007
88 50.000 25.000 25.000 12.450 9.4717 6.7989
89 75.000 25.000 25.000 25.045 15.966 7.3890
90 0.0000 50.000 0.0000 8.5782 16.154 3.5261
91 0.0000 50.000 25.000 9.4874 16.518 8.3150
92 25.000 50.000 25.000 11.565 17.589 8.4123
93 50.000 50.000 25.000 18.227 21.024 8.7245
94 75.000 50.000 25.000 30.822 27.518 9.3147
95 0.0000 75.000 0.0000 19.500 37.995 7.1667
96 0.0000 75.000 25.000 20.409 38.358 11.956
97 25.000 75.000 25.000 22.486 39.429 12.053
98 50.000 75.000 25.000 29.149 42.864 12.365
99 75.000 75.000 25.000 41.744 49.359 12.955
100 0.0000 100.00 0.0000 36.405 71.801 12.802
101 0.0000 100.00 25.000 37.314 72.164 17.591
102 25.000 100.00 25.000 39.392 73.235 17.688
103 50.000 100.00 25.000 46.054 76.670 18.000
104 75.000 100.00 25.000 58.649 83.164 18.590
105 0.0000 0.0000 50.000 4.8252 2.5298 21.147
106 25.000 0.0000 50.000 6.9024 3.6009 21.245
107 50.000 0.0000 50.000 13.564 7.0358 21.557
108 75.000 0.0000 50.000 26.160 13.530 22.147
109 100.00 0.0000 50.000 45.655 23.582 23.061
110 100.00 0.0000 75.000 51.168 25.787 52.098
111 100.00 25.000 75.000 52.969 29.389 52.698
112 75.000 0.0000 25.000 23.244 12.364 6.7886
113 75.000 25.000 50.000 27.961 17.132 22.748
114 100.00 25.000 50.000 47.457 27.184 23.661
115 25.000 25.000 50.000 8.7037 7.2029 21.845
116 25.000 50.000 50.000 14.481 18.755 23.771
117 75.000 50.000 50.000 33.738 28.684 24.673
118 100.00 50.000 50.000 53.233 38.736 25.587
119 100.00 50.000 75.000 58.746 40.941 54.624
120 25.000 75.000 50.000 25.402 40.596 27.412
121 50.000 75.000 50.000 32.064 44.031 27.724
122 75.000 75.000 50.000 44.660 50.525 28.314
123 100.00 75.000 50.000 64.155 60.577 29.227
124 100.00 75.000 75.000 69.668 62.782 58.264
125 25.000 100.00 50.000 42.308 74.401 33.047
126 50.000 100.00 50.000 48.970 77.836 33.359
127 75.000 100.00 50.000 61.565 84.331 33.949
128 100.00 100.00 50.000 81.061 94.383 34.863
129 25.000 0.0000 75.000 12.415 5.8057 50.282
130 50.000 0.0000 75.000 19.077 9.2407 50.594
131 75.000 0.0000 75.000 31.673 15.735 51.184
132 75.000 25.000 75.000 33.474 19.337 51.785
133 75.000 50.000 100.00 47.784 34.302 98.655
134 25.000 25.000 75.000 14.217 9.4077 50.882
135 25.000 50.000 100.00 28.527 24.373 97.752
136 0.0000 25.000 50.000 6.6264 6.1319 21.748
137 0.0000 25.000 75.000 12.139 8.3367 50.785
138 0.0000 50.000 75.000 17.916 19.889 52.710
139 25.000 50.000 75.000 19.993 20.960 52.808
140 50.000 50.000 75.000 26.656 24.395 53.120
141 75.000 50.000 75.000 39.251 30.889 53.710
142 74.510 74.510 74.510 49.457 51.977 56.531
143 0.0000 75.000 75.000 28.838 41.729 56.351
144 25.000 75.000 75.000 30.915 42.800 56.448
145 50.000 75.000 75.000 37.577 46.235 56.761
146 0.0000 75.000 50.000 23.325 39.525 27.314
147 0.0000 100.00 50.000 40.230 73.330 32.949
148 0.0000 100.00 75.000 45.743 75.535 61.986
149 25.000 100.00 75.000 47.821 76.606 62.084
150 50.000 100.00 75.000 54.483 80.041 62.396
151 75.000 100.00 75.000 67.078 86.535 62.986
152 75.000 100.00 100.00 75.611 89.948 107.93
153 25.000 0.0000 100.00 20.948 9.2184 95.226
154 50.000 0.0000 100.00 27.610 12.653 95.538
155 0.0000 0.0000 75.000 10.338 4.7346 50.184
156 0.0000 0.0000 100.00 18.871 8.1473 95.129
157 0.0000 25.000 100.00 20.672 11.749 95.729
158 25.000 25.000 100.00 22.750 12.820 95.827
159 50.000 25.000 100.00 29.412 16.255 96.139
160 75.000 25.000 100.00 42.007 22.750 96.729
161 100.00 25.000 100.00 61.503 32.802 97.643
162 100.00 50.000 100.00 67.279 44.354 99.568
163 50.000 25.000 75.000 20.879 12.843 51.194
164 50.000 50.000 100.00 35.189 27.808 98.065
165 0.0000 50.000 50.000 12.403 17.684 23.674
166 0.0000 50.000 100.00 26.449 23.302 97.655
167 0.0000 75.000 100.00 37.371 45.142 101.30
168 25.000 75.000 100.00 39.448 46.213 101.39
169 50.000 75.000 100.00 46.110 49.648 101.71
170 75.000 75.000 100.00 58.706 56.142 102.30
171 100.00 75.000 100.00 78.201 66.194 103.21
172 0.0000 100.00 100.00 54.276 78.948 106.93
173 25.000 100.00 100.00 56.354 80.019 107.03
174 50.000 100.00 100.00 63.016 83.454 107.34
175 100.00 100.00 100.00 95.106 100.00 108.84
END_DATA
CTI1   

DESCRIPTOR "Argyll Calibration Target chart information 1"
ORIGINATOR "Argyll targen"
DENSITY_EXTREME_VALUES "8"
CREATED "August 31, 2017"

NUMBER_OF_FIELDS 7
BEGIN_DATA_FORMAT
INDEX RGB_R RGB_G RGB_B XYZ_X XYZ_Y XYZ_Z
END_DATA_FORMAT

NUMBER_OF_SETS 8
BEGIN_DATA
0 100.0000 100.0000 100.0000 95.10649 100.0000 108.8440
1 0.000000 47.36070 100.0000 25.61297 21.62916 97.37627
2 100.0000 0.000000 79.35140 52.42580 26.28975 58.72153
3 0.000000 0.000000 58.99710 6.485834 3.193987 29.89445
4 100.0000 66.65930 0.000000 56.05879 50.50543 7.656144
5 0.000000 35.60110 0.000000 4.685619 8.370208 2.228550
6 84.44440 0.000000 0.000000 28.84279 15.35583 2.304665
7 0.000000 0.000000 0.000000 1.000000 1.000000 1.000000
END_DATA
CTI1   

DESCRIPTOR "Argyll Calibration Target chart information 1"
ORIGINATOR "Argyll targen"
DEVICE_COMBINATION_VALUES "9"
CREATED "August 31, 2017"

NUMBER_OF_FIELDS 7
BEGIN_DATA_FORMAT
INDEX RGB_R RGB_G RGB_B XYZ_X XYZ_Y XYZ_Z
END_DATA_FORMAT

NUMBER_OF_SETS 9
BEGIN_DATA
0 100.0000 100.0000 100.0000 95.10649 100.0000 108.8440
1 0.000000 100.0000 100.0000 54.27632 78.94783 106.9308
2 100.0000 0.000000 100.0000 59.70128 29.19948 97.04219
3 0.000000 0.000000 100.0000 18.87111 8.147314 95.12896
4 100.0000 100.0000 0.000000 77.23538 92.85269 14.71507
5 0.000000 100.0000 0.000000 36.40521 71.80052 12.80184
6 100.0000 0.000000 0.000000 41.83017 22.05217 2.913230
7 0.000000 0.000000 0.000000 1.000000 1.000000 1.000000
8 50.00000 50.00000 50.00000 21.14266 22.19007 24.08306
END_DATA
