Color_Correction/G1618-04 #1 2022-12-13 02-38 D6500 sRGB F-S XYZLUT+MTX/0_16.ti1
CTI1   

DESCRIPTOR "Argyll Calibration Target chart information 1"
ORIGINATOR "Argyll targen"
CREATED "Thu Apr 20 12:22:05 2017"
APPROX_WHITE_POINT "95.045781 100.000003 108.905751"
COLOR_REP "RGB"

NUMBER_OF_FIELDS 7
BEGIN_DATA_FORMAT
SAMPLE_ID RGB_R RGB_G RGB_B XYZ_X XYZ_Y XYZ_Z 
END_DATA_FORMAT

NUMBER_OF_SETS 3
BEGIN_DATA
1 100.00 100.00 100.00 95.046 100.00 108.91 
2 0.0000 0.0000 0.0000 0.0000 0.0000 0.0000
3 6.2500 6.2500 6.2500 0.2132 0.2241 0.2443
END_DATA
