Color_Correction/G1618-04 #1 2022-12-13 02-38 D6500 sRGB F-S XYZLUT+MTX/G1618-04 #1 2022-12-13 02-38 D6500 sRGB F-S XYZLUT+MTX.cal
CAL    

DESCRIPTOR "Argyll Device Calibration Curves"
ORIGINATOR "Argyll dispcal"
CREATED "Tue Dec 13 02:43:05 2022"
DEVICE_CLASS "DISPLAY"
COLOR_REP "RGB"
VIDEO_LUT_CALIBRATION_POSSIBLE "YES"
TV_OUTPUT_ENCODING "NO"
DEVICE_TYPE "n"
TARGET_WHITE_XYZ "318.417271 335.115497 364.447012"
TARGET_GAMMA "sRGB"
DEGREE_OF_BLACK_OUTPUT_OFFSET "1.0"
BLACK_POINT_CORRECTION "0.0"
BLACK_NEUTRAL_BLEND_RATE "4.0"
BLACK_POINT_HACK "YES"
QUALITY "low"

BEGIN_ARGYLL_DISPCAL_ARGS
-v2 -d1 -c1 -yn -P0.998171846435,0.5,0.943642611684 -ql -t6500 -gs -f1.0 -k0 -A4.0 -b
END_ARGYLL_DISPCAL_ARGS


NUMBER_OF_FIELDS 4
BEGIN_DATA_FORMAT
RGB_I RGB_R RGB_G RGB_B
END_DATA_FORMAT

NUMBER_OF_SETS 256
BEGIN_DATA
0.00000000 0.00000000 0.00000000 0.00000000
0.00392157 0.00888325 0.00849818 0.00584443
0.00784314 0.01683760 0.01609580 0.01123390
0.01176470 0.02400140 0.02292890 0.01621960
0.01568630 0.03048710 0.02910730 0.02084520
0.01960780 0.03638670 0.03472030 0.02514840
0.02352940 0.04179500 0.03985410 0.02916250
0.02745100 0.04680210 0.04459210 0.03291450
0.03137250 0.05148000 0.04900140 0.03643570
0.03529410 0.05589810 0.05314820 0.03977070
0.03921570 0.06011410 0.05708920 0.04295830
0.04313730 0.06417310 0.06086840 0.04603220
0.04705880 0.06811700 0.06452590 0.04902030
0.05098040 0.07196640 0.06809210 0.05194730
0.05490200 0.07573380 0.07158790 0.05483040
0.05882350 0.07943930 0.07503640 0.05768390
0.06274510 0.08309320 0.07844830 0.06052220
0.06666670 0.08670550 0.08183520 0.06336440
0.07058820 0.09027680 0.08520040 0.06621740
0.07450980 0.09382680 0.08854940 0.06908310
0.07843140 0.09735610 0.09188150 0.07196930
0.08235290 0.10086800 0.09520830 0.07487780
0.08627450 0.10436400 0.09852280 0.07780800
0.09019610 0.10784300 0.10181900 0.08076900
0.09411760 0.11131000 0.10510900 0.08375430
0.09803920 0.11476800 0.10838800 0.08675620
0.10196100 0.11821100 0.11165300 0.08976690
0.10588200 0.12163800 0.11490000 0.09277490
0.10980400 0.12506000 0.11815100 0.09577070
0.11372500 0.12848300 0.12139600 0.09875900
0.11764700 0.13189300 0.12463100 0.10173200
0.12156900 0.13529500 0.12785500 0.10468900
0.12549000 0.13868300 0.13106400 0.10762700
0.12941200 0.14206800 0.13427900 0.11054800
0.13333300 0.14545900 0.13749400 0.11346100
0.13725500 0.14885400 0.14069700 0.11636100
0.14117600 0.15225000 0.14389200 0.11925300
0.14509800 0.15565100 0.14707800 0.12214200
0.14902000 0.15903600 0.15024100 0.12501700
0.15294100 0.16240500 0.15339500 0.12788100
0.15686300 0.16577600 0.15654800 0.13074300
0.16078400 0.16915700 0.15970100 0.13361100
0.16470600 0.17254300 0.16284300 0.13648100
0.16862700 0.17593500 0.16597300 0.13935100
0.17254900 0.17933600 0.16910200 0.14223000
0.17647100 0.18275500 0.17223200 0.14510400
0.18039200 0.18618200 0.17535000 0.14796000
0.18431400 0.18961300 0.17847000 0.15080600
0.18823500 0.19306000 0.18159500 0.15363500
0.19215700 0.19652400 0.18474100 0.15645300
0.19607800 0.20001900 0.18791300 0.15926800
0.20000000 0.20354300 0.19111500 0.16206600
0.20392200 0.20707700 0.19433800 0.16484600
0.20784300 0.21061800 0.19758200 0.16760500
0.21176500 0.21416300 0.20083900 0.17035000
0.21568600 0.21771400 0.20412200 0.17308700
0.21960800 0.22127700 0.20743300 0.17581500
0.22352900 0.22484900 0.21076300 0.17852700
0.22745100 0.22840300 0.21409000 0.18123400
0.23137300 0.23193500 0.21742700 0.18395200
0.23529400 0.23546300 0.22078700 0.18667500
0.23921600 0.23898100 0.22416000 0.18940300
0.24313700 0.24249500 0.22754400 0.19213600
0.24705900 0.24601600 0.23094900 0.19487900
0.25098000 0.24956000 0.23438400 0.19763900
0.25490200 0.25313300 0.23784600 0.20040400
0.25882400 0.25670400 0.24131600 0.20317300
0.26274500 0.26026500 0.24479200 0.20594100
0.26666700 0.26381700 0.24828000 0.20871200
0.27058800 0.26736500 0.25178700 0.21147900
0.27451000 0.27090900 0.25530100 0.21424300
0.27843100 0.27445900 0.25883300 0.21701200
0.28235300 0.27803300 0.26238700 0.21979500
0.28627500 0.28164500 0.26597600 0.22259900
0.29019600 0.28529800 0.26959200 0.22541000
0.29411800 0.28897800 0.27318500 0.22820600
0.29803900 0.29263900 0.27675200 0.23099300
0.30196100 0.29628300 0.28030500 0.23378400
0.30588200 0.29992400 0.28385100 0.23659400
0.30980400 0.30357400 0.28739200 0.23942500
0.31372500 0.30723700 0.29091700 0.24227700
0.31764700 0.31090200 0.29442000 0.24513900
0.32156900 0.31455400 0.29790600 0.24802200
0.32549000 0.31821000 0.30137000 0.25092200
0.32941200 0.32186300 0.30481200 0.25384100
0.33333300 0.32551700 0.30823500 0.25678200
0.33725500 0.32917800 0.31165000 0.25975100
0.34117600 0.33285300 0.31507600 0.26274700
0.34509800 0.33655900 0.31849700 0.26575200
0.34902000 0.34027700 0.32190300 0.26876500
0.35294100 0.34400100 0.32529500 0.27178700
0.35686300 0.34772800 0.32867200 0.27481300
0.36078400 0.35146000 0.33203700 0.27784500
0.36470600 0.35520200 0.33538500 0.28087700
0.36862700 0.35894600 0.33873100 0.28392200
0.37254900 0.36269900 0.34207300 0.28696000
0.37647100 0.36645400 0.34539700 0.28998500
0.38039200 0.37018900 0.34871200 0.29300700
0.38431400 0.37390900 0.35203300 0.29602700
0.38823500 0.37762700 0.35535900 0.29903700
0.39215700 0.38134400 0.35868800 0.30203900
0.39607800 0.38504800 0.36203500 0.30505200
0.40000000 0.38875000 0.36541400 0.30809500
0.40392200 0.39246800 0.36884000 0.31117200
0.40784300 0.39622100 0.37231800 0.31427100
0.41176500 0.40001400 0.37583700 0.31734000
0.41568600 0.40382800 0.37933800 0.32037200
0.41960800 0.40761300 0.38281400 0.32337900
0.42352900 0.41136900 0.38627600 0.32637500
0.42745100 0.41510400 0.38973700 0.32936600
0.43137300 0.41882800 0.39321100 0.33234200
0.43529400 0.42254400 0.39669100 0.33530000
0.43921600 0.42624500 0.40017900 0.33824200
0.44313700 0.42994400 0.40368600 0.34116500
0.44705900 0.43365500 0.40719900 0.34407600
0.45098000 0.43737500 0.41071700 0.34698500
0.45490200 0.44111400 0.41426000 0.34988400
0.45882400 0.44488600 0.41782000 0.35277000
0.46274500 0.44866800 0.42137000 0.35565300
0.46666700 0.45244200 0.42491900 0.35854400
0.47058800 0.45622400 0.42847900 0.36144400
0.47451000 0.46004000 0.43205300 0.36433800
0.47843100 0.46388900 0.43562100 0.36723400
0.48235300 0.46774300 0.43919300 0.37012600
0.48627500 0.47161500 0.44277300 0.37301800
0.49019600 0.47549700 0.44636500 0.37591000
0.49411800 0.47938800 0.44997400 0.37879800
0.49803900 0.48328500 0.45360000 0.38168300
0.50196100 0.48718800 0.45724200 0.38456400
0.50588200 0.49109600 0.46090000 0.38744100
0.50980400 0.49501000 0.46457600 0.39032300
0.51372500 0.49893200 0.46829200 0.39322400
0.51764700 0.50288900 0.47202500 0.39613500
0.52156900 0.50684300 0.47575100 0.39905500
0.52549000 0.51078400 0.47946800 0.40198600
0.52941200 0.51471200 0.48317800 0.40492700
0.53333300 0.51862600 0.48688100 0.40788100
0.53725500 0.52252900 0.49057800 0.41084900
0.54117600 0.52641900 0.49426300 0.41382700
0.54509800 0.53030200 0.49793400 0.41682100
0.54902000 0.53418200 0.50158700 0.41982400
0.55294100 0.53805800 0.50522600 0.42284800
0.55686300 0.54194300 0.50887300 0.42590500
0.56078400 0.54585600 0.51252100 0.42897100
0.56470600 0.54977900 0.51615800 0.43204400
0.56862700 0.55370200 0.51979500 0.43512400
0.57254900 0.55763400 0.52344000 0.43820000
0.57647100 0.56157300 0.52709400 0.44127700
0.58039200 0.56553100 0.53078000 0.44437500
0.58431400 0.56953400 0.53449700 0.44748800
0.58823500 0.57357600 0.53819600 0.45058400
0.59215700 0.57759700 0.54185500 0.45366500
0.59607800 0.58159400 0.54549400 0.45674600
0.60000000 0.58558900 0.54913200 0.45983200
0.60392200 0.58958700 0.55276400 0.46291200
0.60784300 0.59358000 0.55638700 0.46599500
0.61176500 0.59756000 0.55999900 0.46908500
0.61568600 0.60153000 0.56361700 0.47218000
0.61960800 0.60548600 0.56724600 0.47527700
0.62352900 0.60942300 0.57088700 0.47837500
0.62745100 0.61334500 0.57455000 0.48147900
0.63137300 0.61726300 0.57822100 0.48457400
0.63529400 0.62114800 0.58188600 0.48766600
0.63921600 0.62500700 0.58555200 0.49074900
0.64313700 0.62884300 0.58922600 0.49382000
0.64705900 0.63266500 0.59289900 0.49686600
0.65098000 0.63646400 0.59656000 0.49989600
0.65490200 0.64025100 0.60021700 0.50291700
0.65882400 0.64404400 0.60387900 0.50594300
0.66274500 0.64785500 0.60756600 0.50899000
0.66666700 0.65169800 0.61129800 0.51207600
0.67058800 0.65559200 0.61508700 0.51520300
0.67451000 0.65955400 0.61893600 0.51837200
0.67843100 0.66358900 0.62284500 0.52156800
0.68235300 0.66769500 0.62673900 0.52472400
0.68627500 0.67177800 0.63054500 0.52783100
0.69019600 0.67578200 0.63426600 0.53089100
0.69411800 0.67970600 0.63791100 0.53391200
0.69803900 0.68356000 0.64150100 0.53691400
0.70196100 0.68735100 0.64506200 0.53991900
0.70588200 0.69110400 0.64861800 0.54294600
0.70980400 0.69484100 0.65218200 0.54599900
0.71372500 0.69857500 0.65575800 0.54908900
0.71764700 0.70231400 0.65934800 0.55220900
0.72156900 0.70606700 0.66294300 0.55534700
0.72549000 0.70982900 0.66654400 0.55850800
0.72941200 0.71359900 0.67016200 0.56169100
0.73333300 0.71739900 0.67379100 0.56489700
0.73725500 0.72123100 0.67743400 0.56813300
0.74117600 0.72510300 0.68109600 0.57137000
0.74509800 0.72902800 0.68475900 0.57460900
0.74902000 0.73298300 0.68844000 0.57785100
0.75294100 0.73698200 0.69213700 0.58109900
0.75686300 0.74102500 0.69584700 0.58435800
0.76078400 0.74511100 0.69957100 0.58763000
0.76470600 0.74924100 0.70332100 0.59091100
0.76862700 0.75341800 0.70708100 0.59420300
0.77254900 0.75762000 0.71085100 0.59750300
0.77647100 0.76184400 0.71463100 0.60082000
0.78039200 0.76607600 0.71843400 0.60414000
0.78431400 0.77031500 0.72223900 0.60746400
0.78823500 0.77453000 0.72603800 0.61077800
0.79215700 0.77870500 0.72984100 0.61407300
0.79607800 0.78284000 0.73364900 0.61736400
0.80000000 0.78693600 0.73747300 0.62067000
0.80392200 0.79099800 0.74134200 0.62399100
0.80784300 0.79505000 0.74526600 0.62728700
0.81176500 0.79910200 0.74922600 0.63051600
0.81568600 0.80314400 0.75314800 0.63368500
0.81960800 0.80711700 0.75703000 0.63681600
0.82352900 0.81101600 0.76088500 0.63992700
0.82745100 0.81487300 0.76473400 0.64303000
0.83137300 0.81871500 0.76858800 0.64611600
0.83529400 0.82256400 0.77244500 0.64919100
0.83921600 0.82643200 0.77630000 0.65225800
0.84313700 0.83031300 0.78015800 0.65532800
0.84705900 0.83420800 0.78402200 0.65839900
0.85098000 0.83813500 0.78789000 0.66146700
0.85490200 0.84209700 0.79175400 0.66455400
0.85882400 0.84608700 0.79564000 0.66766400
0.86274500 0.85011600 0.79956200 0.67078100
0.86666700 0.85420300 0.80349200 0.67387800
0.87058800 0.85835100 0.80737600 0.67696400
0.87451000 0.86249900 0.81122900 0.68005000
0.87843100 0.86663000 0.81507100 0.68313100
0.88235300 0.87075700 0.81890400 0.68620300
0.88627500 0.87488100 0.82273800 0.68926600
0.89019600 0.87901500 0.82657500 0.69233100
0.89411800 0.88315800 0.83042800 0.69539300
0.89803900 0.88732700 0.83426400 0.69844600
0.90196100 0.89152300 0.83808200 0.70150100
0.90588200 0.89571000 0.84189800 0.70457200
0.90980400 0.89990000 0.84571800 0.70766700
0.91372500 0.90410900 0.84954500 0.71078200
0.91764700 0.90835500 0.85336100 0.71389500
0.92156900 0.91263800 0.85716700 0.71701500
0.92549000 0.91693500 0.86098200 0.72015100
0.92941200 0.92125700 0.86479800 0.72328400
0.93333300 0.92559800 0.86859900 0.72641200
0.93725500 0.92991800 0.87240300 0.72953800
0.94117600 0.93422800 0.87619700 0.73265400
0.94509800 0.93852400 0.87999700 0.73577200
0.94902000 0.94283100 0.88379600 0.73888700
0.95294100 0.94714900 0.88759600 0.74199900
0.95686300 0.95148700 0.89139300 0.74510800
0.96078400 0.95583800 0.89519200 0.74821500
0.96470600 0.96018800 0.89899100 0.75131700
0.96862700 0.96454100 0.90278900 0.75441700
0.97254900 0.96890800 0.90658600 0.75752000
0.97647100 0.97328700 0.91038200 0.76062500
0.98039200 0.97767800 0.91417500 0.76373300
0.98431400 0.98208100 0.91796700 0.76684400
0.98823500 0.98649600 0.92175700 0.76995700
0.99215700 0.99092400 0.92554600 0.77307400
0.99607800 0.99536300 0.92933200 0.77619300
1.00000000 0.99981500 0.93311700 0.77931500
END_DATA
CAL    

DESCRIPTOR "Argyll Calibration options and model"
ORIGINATOR "Argyll dispcal"
CREATED "Tue Dec 13 02:43:05 202"

NUMBER_OF_FIELDS 3
BEGIN_DATA_FORMAT
R_P G_P B_P
END_DATA_FORMAT

NUMBER_OF_SETS 32
BEGIN_DATA
-0.000812411 0.000320729 0.001189960
1.000812000 0.999679000 0.998810000
1.413380000 1.683948000 1.904672000
0.517581000 0.274794000 0.200593000
0.101548000 0.177625000 0.160443000
0.130300000 0.127198000 0.116502000
0.106061000 0.108706000 0.104536000
0.073519300 0.087628000 0.092891200
0.050342800 0.080380100 0.085986900
0.052436500 0.074756200 0.078123900
0.048025100 0.062761200 0.064993300
0.044202400 0.064059500 0.065377600
0.042407200 0.057271700 0.059260800
0.032671100 0.052429200 0.059104500
0.034652200 0.046009000 0.042115100
0.041528700 0.044296800 0.054188300
0.027184800 0.038331700 0.045186200
0.026576300 0.040994200 0.040592100
0.020773900 0.031309400 0.048107100
0.022860100 0.035716000 0.037182200
0.021926600 0.044201800 0.031850800
0.019648800 0.036491100 0.031199300
0.018501500 0.028550600 0.029466500
0.016436400 0.026298900 0.029604800
0.016356500 0.026285500 0.029643100
0.015644600 0.029122800 0.027862100
0.012754600 0.030118900 0.023855000
0.012680800 0.028377100 0.021143800
0.012994200 0.028198700 0.018150900
0.011463500 0.028303700 0.022825800
0.010344900 0.023866500 0.018251800
0.009471980 0.024482900 0.017455200
END_DATA
