Color_Correction/G1618-04 #1 2022-12-13 02-38 D6500 sRGB F-S XYZLUT+MTX/G1618-04 #1 2022-12-13 02-38 D6500 sRGB F-S XYZLUT+MTX.ti1
CTI1   

DESCRIPTOR "Argyll Calibration Target chart information 1"
ORIGINATOR "Argyll targen"
CREATED "Tue Dec 13 02:30:21 2022"
SINGLE_DIM_STEPS "5"
COMP_GREY_STEPS "52"
MULTI_DIM_STEPS "5"
COLOR_REP "RGB"
TARGET_INSTRUMENT "X-Rite i1 DisplayPro, ColorMunki Display"
DISPLAY_TYPE_REFRESH "NO"
DISPLAY_TYPE_BASE_ID "1"
INSTRUMENT_TYPE_SPECTRAL "NO"
NORMALIZED_TO_Y_100 "YES"
VIDEO_LUT_CALIBRATION_POSSIBLE "YES"
OBSERVER "1931_2"
USE_BLACK_POINT_COMPENSATION "NO"
BLACK_POINT_CORRECTION "0.0"
HIRES_B2A "YES"
HIRES_B2A_SIZE "-1"
SMOOTH_B2A "YES"
PATCH_SEQUENCE "OPTIMIZE_DISPLAY_RESPONSE_DELAY"

NUMBER_OF_FIELDS 7
BEGIN_DATA_FORMAT
SAMPLE_ID RGB_R RGB_G RGB_B XYZ_X XYZ_Y XYZ_Z
END_DATA_FORMAT

NUMBER_OF_SETS 175
BEGIN_DATA
1 100.0000 100.0000 100.0000 94.57592 100.0000 109.0153
2 100.0000 100.0000 75.00000 86.22843 97.32597 64.54062
3 100.0000 100.0000 100.0000 94.56176 99.99024 109.0714
4 100.0000 100.0000 100.0000 94.58761 100.0004 109.0710
5 0.000000 0.000000 0.000000 0.121061 0.108033 0.281880
6 25.00000 0.000000 0.000000 2.082107 1.172413 0.335245
7 50.00000 0.000000 0.000000 7.949903 4.358569 0.501245
8 75.00000 0.000000 0.000000 19.53260 10.64120 0.827712
9 100.0000 0.000000 0.000000 38.03310 20.68248 1.353984
10 100.0000 0.000000 25.00000 39.06268 21.02539 6.456479
11 100.0000 25.00000 25.00000 41.06997 24.90280 7.171480
12 100.0000 50.00000 25.00000 47.49903 37.31778 8.960307
13 100.0000 75.00000 25.00000 59.48957 59.94632 12.53011
14 0.000000 0.000000 25.00000 0.994923 0.396501 4.933901
15 25.00000 0.000000 25.00000 3.001758 1.484445 5.012150
16 75.00000 0.000000 100.0000 37.70513 16.73637 95.71846
17 100.0000 0.000000 100.0000 56.28273 26.75982 97.55934
18 1.960800 1.960800 1.960800 0.217905 0.213427 0.376722
19 3.921600 3.921600 3.921600 0.404222 0.413416 0.555791
20 5.882400 5.882400 5.882400 0.565805 0.581283 0.800036
21 7.843100 7.843100 7.843100 0.762761 0.783592 1.007760
22 9.803900 9.803900 9.803900 1.045670 1.079013 1.341043
23 11.76500 11.76500 11.76500 1.310946 1.377871 1.612344
24 13.72600 13.72600 13.72600 1.708283 1.767237 2.093065
25 15.68600 15.68600 15.68600 2.093210 2.173586 2.572655
26 17.64700 17.64700 17.64700 2.669355 2.779676 3.120865
27 19.60800 19.60800 19.60800 3.130554 3.284736 3.700542
28 21.56900 21.56900 21.56900 3.713911 3.873275 4.377255
29 23.52900 23.52900 23.52900 4.445966 4.595190 5.307812
30 27.45100 27.45100 27.45100 6.029786 6.290893 6.923451
31 29.41200 29.41200 29.41200 6.780439 7.037225 8.109120
32 31.37300 31.37300 31.37300 7.759661 8.087734 9.082816
33 33.33300 33.33300 33.33300 8.813844 9.228278 10.21025
34 35.29400 35.29400 35.29400 9.650470 10.09293 11.23132
35 37.25500 37.25500 37.25500 10.93378 11.46588 12.62196
36 39.21600 39.21600 39.21600 12.01469 12.72949 13.69517
37 41.17600 41.17600 41.17600 13.30624 14.12791 15.27055
38 43.13700 43.13700 43.13700 14.62338 15.40161 16.95303
39 45.09800 45.09800 45.09800 16.00992 17.04416 18.42158
40 47.05900 47.05900 47.05900 17.65607 18.69753 20.61074
41 49.02000 49.02000 49.02000 19.48622 20.69424 22.07756
42 50.98000 50.98000 50.98000 21.17633 22.41476 24.32362
43 52.94100 52.94100 52.94100 23.14726 24.26569 27.01355
44 54.90200 54.90200 54.90200 25.03886 26.33338 28.81691
45 56.86300 56.86300 56.86300 26.95017 28.27946 30.89570
46 58.82400 58.82400 58.82400 29.52133 30.94110 34.09834
47 60.78400 60.78400 60.78400 31.40142 33.14987 36.13075
48 62.74500 62.74500 62.74500 33.60970 35.54370 38.60741
49 64.70600 64.70600 64.70600 35.70140 37.65546 41.58236
50 66.66700 66.66700 66.66700 38.21359 40.25551 44.33668
51 68.62700 68.62700 68.62700 41.01293 43.25914 47.54371
52 70.58800 70.58800 70.58800 43.31676 45.95687 50.08354
53 72.54900 72.54900 72.54900 46.28013 48.87734 53.56290
54 76.47100 76.47100 76.47100 51.92461 54.90797 60.14439
55 78.43100 78.43100 78.43100 54.88463 58.04428 62.90288
56 80.39200 80.39200 80.39200 58.20949 61.34273 67.55998
57 82.35300 82.35300 82.35300 61.16379 64.46898 69.70220
58 84.31400 84.31400 84.31400 65.32351 68.76686 75.26321
59 86.27500 86.27500 86.27500 68.26807 71.99699 78.13728
60 88.23500 88.23500 88.23500 71.77056 75.94007 82.36225
61 90.19600 90.19600 90.19600 75.79767 79.83531 87.29786
62 92.15700 92.15700 92.15700 79.40960 83.80258 90.56815
63 94.11800 94.11800 94.11800 83.04817 87.56132 95.06295
64 96.07800 96.07800 96.07800 87.32995 92.01648 100.8495
65 98.03900 98.03900 98.03900 91.07617 96.20116 104.5710
66 25.00000 25.00000 0.000000 4.007646 4.851676 0.876642
67 50.00000 25.00000 0.000000 9.946953 8.028064 1.033918
68 75.00000 25.00000 0.000000 21.55425 14.44887 1.383603
69 100.0000 25.00000 0.000000 39.94470 24.55088 1.933016
70 100.0000 50.00000 0.000000 46.46326 36.87106 3.762686
71 50.00000 50.00000 0.000000 16.29842 19.97964 2.808383
72 75.00000 50.00000 0.000000 28.02923 26.51993 3.172356
73 25.00000 50.00000 0.000000 10.21940 16.69739 2.641232
74 25.00000 75.00000 0.000000 22.03425 39.14836 5.977081
75 50.00000 75.00000 0.000000 28.16753 42.57645 6.170423
76 75.00000 75.00000 0.000000 39.74510 48.89602 6.509168
77 100.0000 75.00000 0.000000 58.29591 59.43550 7.125428
78 25.00000 100.0000 0.000000 40.44845 74.23556 11.20828
79 50.00000 100.0000 0.000000 46.51661 77.49555 11.37460
80 75.00000 100.0000 0.000000 58.17216 83.97101 11.72886
81 100.0000 100.0000 0.000000 76.30243 94.13184 12.31133
82 100.0000 100.0000 25.00000 77.38014 94.45763 17.89035
83 50.00000 0.000000 25.00000 9.010775 4.735270 5.410082
84 50.00000 25.00000 50.00000 14.02150 9.492668 21.42455
85 0.000000 25.00000 0.000000 1.946971 3.590006 0.793243
86 0.000000 25.00000 25.00000 2.964959 4.065608 5.760462
87 25.49000 25.49000 25.49000 5.132822 5.383808 5.912944
88 50.00000 25.00000 25.00000 11.01452 8.469179 5.990368
89 75.00000 25.00000 25.00000 22.60252 14.77646 6.306071
90 0.000000 50.00000 0.000000 8.083651 15.23941 2.526397
91 0.000000 50.00000 25.00000 9.127402 15.73023 7.660353
92 25.00000 50.00000 25.00000 11.28113 17.18547 7.664477
93 50.00000 50.00000 25.00000 17.35867 20.41122 7.853585
94 75.00000 50.00000 25.00000 29.07483 26.98888 8.365974
95 0.000000 75.00000 0.000000 19.90807 37.74713 5.878884
96 0.000000 75.00000 25.00000 20.77749 37.96942 10.79253
97 25.00000 75.00000 25.00000 23.05075 39.58186 11.01018
98 50.00000 75.00000 25.00000 29.18436 42.81867 11.34285
99 75.00000 75.00000 25.00000 40.96612 49.53924 11.73907
100 0.000000 100.0000 0.000000 38.33169 72.89109 11.12601
101 0.000000 100.0000 25.00000 39.30827 73.30472 16.21610
102 25.00000 100.0000 25.00000 41.22492 74.10086 16.29637
103 50.00000 100.0000 25.00000 47.54290 77.79451 16.56313
104 75.00000 100.0000 25.00000 59.20557 84.29543 17.09683
105 0.000000 0.000000 50.00000 3.826654 1.337838 20.00752
106 25.00000 0.000000 50.00000 5.824547 2.425006 19.92693
107 50.00000 0.000000 50.00000 11.79756 5.666497 20.18919
108 75.00000 0.000000 50.00000 23.51024 11.99864 21.21987
109 100.0000 0.000000 50.00000 41.93789 21.96697 22.05531
110 100.0000 0.000000 75.00000 47.59398 23.85591 51.96722
111 100.0000 25.00000 75.00000 49.61374 27.76824 52.76355
112 75.00000 0.000000 25.00000 20.60379 11.02249 5.810347
113 75.00000 25.00000 50.00000 25.57288 15.85856 21.73312
114 100.0000 25.00000 50.00000 44.06924 25.93923 23.35432
115 25.00000 25.00000 50.00000 7.853227 6.132548 21.10827
116 25.00000 50.00000 50.00000 14.27767 18.21523 23.44162
117 75.00000 50.00000 50.00000 32.22957 28.11399 24.17716
118 100.0000 50.00000 50.00000 50.55397 38.39321 24.91399
119 100.0000 50.00000 75.00000 56.07539 40.14640 54.48944
120 25.00000 75.00000 50.00000 25.89046 40.34034 26.45402
121 50.00000 75.00000 50.00000 32.15742 43.85701 26.88450
122 75.00000 75.00000 50.00000 44.06457 50.59080 27.75455
123 100.0000 75.00000 50.00000 62.49043 60.96088 28.77136
124 100.0000 75.00000 75.00000 68.06623 62.67522 58.90397
125 25.00000 100.0000 50.00000 44.36851 75.33252 32.31644
126 50.00000 100.0000 50.00000 50.65947 78.90310 32.63596
127 75.00000 100.0000 50.00000 62.30579 85.30979 33.61511
128 100.0000 100.0000 50.00000 80.47787 95.46260 34.52040
129 25.00000 0.000000 75.00000 11.37456 4.278846 49.33681
130 50.00000 0.000000 75.00000 17.49286 7.574331 50.21255
131 75.00000 0.000000 75.00000 29.08555 13.85654 50.40509
132 75.00000 25.00000 75.00000 31.31507 17.71565 52.03343
133 75.00000 50.00000 100.0000 46.19864 32.73564 98.56673
134 25.00000 25.00000 75.00000 13.57727 8.142542 50.96612
135 25.00000 50.00000 100.0000 28.41922 22.90803 98.50043
136 0.000000 25.00000 50.00000 5.859397 5.031272 21.07626
137 0.000000 25.00000 75.00000 11.45619 6.923465 50.87806
138 0.000000 50.00000 75.00000 17.58925 18.63036 52.36767
139 25.00000 50.00000 75.00000 20.01828 20.25096 53.52386
140 50.00000 50.00000 75.00000 26.17036 23.50367 53.50101
141 75.00000 50.00000 75.00000 37.75713 29.99892 53.47674
142 74.51000 74.51000 74.51000 49.17853 51.95586 56.76942
143 0.000000 75.00000 75.00000 29.40365 41.04076 55.99950
144 25.00000 75.00000 75.00000 31.63133 42.51092 56.42869
145 50.00000 75.00000 75.00000 37.95342 45.82540 57.18687
146 0.000000 75.00000 50.00000 23.73223 39.02911 26.19601
147 0.000000 100.0000 50.00000 42.43955 74.48283 32.40280
148 0.000000 100.0000 75.00000 47.59787 75.62344 61.74495
149 25.00000 100.0000 75.00000 50.00307 77.17694 62.22753
150 50.00000 100.0000 75.00000 56.26360 80.63695 62.65633
151 75.00000 100.0000 75.00000 67.96187 87.19873 63.52702
152 75.00000 100.0000 100.0000 76.48150 89.81565 109.1708
153 25.00000 0.000000 100.0000 20.10829 7.158919 96.15898
154 50.00000 0.000000 100.0000 26.21999 10.47343 96.30743
155 0.000000 0.000000 75.00000 9.229827 3.131207 48.74775
156 0.000000 0.000000 100.0000 17.71558 5.943544 93.89492
157 0.000000 25.00000 100.0000 20.11166 9.789087 96.80598
158 25.00000 25.00000 100.0000 22.09346 10.98190 96.28129
159 50.00000 25.00000 100.0000 28.43174 14.40378 97.37858
160 75.00000 25.00000 100.0000 40.05544 20.64640 98.01694
161 100.0000 25.00000 100.0000 58.37958 30.79077 98.86134
162 100.0000 50.00000 100.0000 64.82459 43.14979 100.7551
163 50.00000 25.00000 75.00000 19.81968 11.54553 51.33758
164 50.00000 50.00000 100.0000 34.86371 26.50804 98.98430
165 0.000000 50.00000 50.00000 12.07181 16.71451 23.29080
166 0.000000 50.00000 100.0000 26.41809 21.75517 98.63496
167 0.000000 75.00000 100.0000 38.04126 43.98421 101.7625
168 25.00000 75.00000 100.0000 40.62651 45.57514 103.6411
169 50.00000 75.00000 100.0000 46.71968 48.96960 102.3925
170 75.00000 75.00000 100.0000 58.18187 55.09484 103.0319
171 100.0000 75.00000 100.0000 76.37775 65.37005 103.1564
172 0.000000 100.0000 100.0000 56.41596 78.72599 108.0118
173 25.00000 100.0000 100.0000 58.71263 80.07879 108.4350
174 50.00000 100.0000 100.0000 64.97135 83.37266 109.1385
175 100.0000 100.0000 100.0000 94.47034 99.87505 109.4064
END_DATA
